TestChart/EPSON_P900_Series/HP_Premeium_Plain/InkLimitChannel.it8
KEYWORD QUALITY_MODE
QUALITY_MODE 1
KEYWORD CHART_W
CHART_W 2320
KEYWORD CHART_H
CHART_H 1150
KEYWORD PATCH_SIZE_X
PATCH_SIZE_X 9600
KEYWORD PATCH_SIZE_Y
PATCH_SIZE_Y 9600
KEYWORD GAP_SIZE
GAP_SIZE 1800
KEYWORD BORDER_PATCHES
BORDER_PATCHES 1
KEYWORD DEVICE
DEVICE 15
KEYWORD ORIGINAL_NUMBER_OF_SETS
ORIGINAL_NUMBER_OF_SETS 120
KEYWORD PATCHES_PER_PAGE
PATCHES_PER_PAGE 120
KEYWORD NUMBER_OF_STRIPS
NUMBER_OF_STRIPS 8
KEYWORD NUMBER_OF_COLS
NUMBER_OF_COLS 15
NUMBER_OF_SETS 120
KEYWORD RANDOMIZED_PATCHES
RANDOMIZED_PATCHES	0
KEYWORD USE_RANDOMIZED_REFERENCEFILE
USE_RANDOMIZED_REFERENCEFILE	0
KEYWORD PRINTERID
PRINTERID	3239
KEYWORD PAGESIZE_WIDTH
PAGESIZE_WIDTH	414
KEYWORD PAGESIZE_HEIGHT
PAGESIZE_HEIGHT	9493
KEYWORD HARDMARGIN_LEFT
HARDMARGIN_LEFT	0
KEYWORD HARDMARGIN_RIGHT
HARDMARGIN_RIGHT	0
KEYWORD HARDMARGIN_TOP
HARDMARGIN_TOP	0
KEYWORD HARDMARGIN_BOTTOM
HARDMARGIN_BOTTOM	0
KEYWORD USE_FULL_PAGESIZE
USE_FULL_PAGESIZE	0
KEYWORD ISIS_XL_FORMAT
ISIS_XL_FORMAT	0
KEYWORD REPEAT_PATCH_MEASURE_COUNT
REPEAT_PATCH_MEASURE_COUNT	1
KEYWORD MEASURINGTYPE
MEASURINGTYPE	0
KEYWORD POSITIONING
POSITIONING	1
KEYWORD DEVICEMODE
DEVICEMODE	0
KEYWORD ZEBRA_RULER_MODE
ZEBRA_RULER_MODE	1
KEYWORD LOWRES
LOWRES	0
KEYWORD ILLUMINATION_CONDITION
ILLUMINATION_CONDITION	0
KEYWORD PAPERSIZE_WIDTH
PAPERSIZE_WIDTH	414
KEYWORD PAPERSIZE_HEIGHT
PAPERSIZE_HEIGHT	9493
KEYWORD PROCESSCOLOR_ID
PROCESSCOLOR_ID"4 1 Cyan"
PROCESSCOLOR_ID"4 2 Magenta"
PROCESSCOLOR_ID"4 3 Yellow"
PROCESSCOLOR_ID"4 4 Black"
BEGIN_DATA_FORMAT
SAMPLE_ID	CMYK_C	CMYK_M	CMYK_Y	CMYK_K
END_DATA_FORMAT
BEGIN_DATA
1	100	0	0	0	
2	98.04639805	0	0	0	
3	94.8962149	0	0	0	
4	90.20757021	0	0	0	
5	85.1037851	0	0	0	
6	80	0	0	0	
7	74.8962149	0	0	0	
8	70.20757021	0	0	0	
9	65.1037851	0	0	0	
10	61.17216117	0	0	0	
11	56.06837607	0	0	0	
12	52.16117216	0	0	0	
13	47.83882784	0	0	0	
14	43.93162393	0	0	0	
15	40	0	0	0	
16	36.06837607	0	0	0	
17	32.16117216	0	0	0	
18	27.83882784	0	0	0	
19	23.93162393	0	0	0	
20	20	0	0	0	
21	16.87423687	0	0	0	
22	14.8962149	0	0	0	
23	12.16117216	0	0	0	
24	10.20757021	0	0	0	
25	7.838827839	0	0	0	
26	5.885225885	0	0	0	
27	3.931623932	0	0	0	
28	3.125763126	0	0	0	
29	1.953601954	0	0	0	
30	0	0	0	0	
31	0	100	0	0	
32	0	98.04639805	0	0	
33	0	94.8962149	0	0	
34	0	90.20757021	0	0	
35	0	85.1037851	0	0	
36	0	80	0	0	
37	0	74.8962149	0	0	
38	0	70.20757021	0	0	
39	0	65.1037851	0	0	
40	0	61.17216117	0	0	
41	0	56.06837607	0	0	
42	0	52.16117216	0	0	
43	0	47.83882784	0	0	
44	0	43.93162393	0	0	
45	0	40	0	0	
46	0	36.06837607	0	0	
47	0	32.16117216	0	0	
48	0	27.83882784	0	0	
49	0	23.93162393	0	0	
50	0	20	0	0	
51	0	16.87423687	0	0	
52	0	14.8962149	0	0	
53	0	12.16117216	0	0	
54	0	10.20757021	0	0	
55	0	7.838827839	0	0	
56	0	5.885225885	0	0	
57	0	3.931623932	0	0	
58	0	3.125763126	0	0	
59	0	1.953601954	0	0	
60	0	0	0	0	
61	0	0	100	0	
62	0	0	98.04639805	0	
63	0	0	94.8962149	0	
64	0	0	90.20757021	0	
65	0	0	85.1037851	0	
66	0	0	80	0	
67	0	0	74.8962149	0	
68	0	0	70.20757021	0	
69	0	0	65.1037851	0	
70	0	0	61.17216117	0	
71	0	0	56.06837607	0	
72	0	0	52.16117216	0	
73	0	0	47.83882784	0	
74	0	0	43.93162393	0	
75	0	0	40	0	
76	0	0	36.06837607	0	
77	0	0	32.16117216	0	
78	0	0	27.83882784	0	
79	0	0	23.93162393	0	
80	0	0	20	0	
81	0	0	16.87423687	0	
82	0	0	14.8962149	0	
83	0	0	12.16117216	0	
84	0	0	10.20757021	0	
85	0	0	7.838827839	0	
86	0	0	5.885225885	0	
87	0	0	3.931623932	0	
88	0	0	3.125763126	0	
89	0	0	1.953601954	0	
90	0	0	0	0	
91	0	0	0	100	
92	0	0	0	98.04639805	
93	0	0	0	94.8962149	
94	0	0	0	90.20757021	
95	0	0	0	85.1037851	
96	0	0	0	80	
97	0	0	0	74.8962149	
98	0	0	0	70.20757021	
99	0	0	0	65.1037851	
100	0	0	0	61.17216117	
101	0	0	0	56.06837607	
102	0	0	0	52.16117216	
103	0	0	0	47.83882784	
104	0	0	0	43.93162393	
105	0	0	0	40	
106	0	0	0	36.06837607	
107	0	0	0	32.16117216	
108	0	0	0	27.83882784	
109	0	0	0	23.93162393	
110	0	0	0	20	
111	0	0	0	16.87423687	
112	0	0	0	14.8962149	
113	0	0	0	12.16117216	
114	0	0	0	10.20757021	
115	0	0	0	7.838827839	
116	0	0	0	5.885225885	
117	0	0	0	3.931623932	
118	0	0	0	3.125763126	
119	0	0	0	1.953601954	
120	0	0	0	0	
END_DATA
