TestChart/EPSON_P900_Series/HP_Premeium_Plain/QualityControl.it8
KEYWORD QUALITY_MODE
QUALITY_MODE 1
KEYWORD CHART_W
CHART_W 2663
KEYWORD CHART_H
CHART_H 2091
KEYWORD PATCH_SIZE_X
PATCH_SIZE_X 9600
KEYWORD PATCH_SIZE_Y
PATCH_SIZE_Y 9600
KEYWORD GAP_SIZE
GAP_SIZE 1800
KEYWORD BORDER_PATCHES
BORDER_PATCHES 1
KEYWORD DEVICE
DEVICE 15
KEYWORD ORIGINAL_NUMBER_OF_SETS
ORIGINAL_NUMBER_OF_SETS 180
KEYWORD PATCHES_PER_PAGE
PATCHES_PER_PAGE 180
KEYWORD NUMBER_OF_STRIPS
NUMBER_OF_STRIPS 10
KEYWORD NUMBER_OF_COLS
NUMBER_OF_COLS 18
NUMBER_OF_SETS 180
KEYWORD RANDOMIZED_PATCHES
RANDOMIZED_PATCHES	0
KEYWORD USE_RANDOMIZED_REFERENCEFILE
USE_RANDOMIZED_REFERENCEFILE	0
KEYWORD PRINTERID
PRINTERID	3239
KEYWORD PAGESIZE_WIDTH
PAGESIZE_WIDTH	414
KEYWORD PAGESIZE_HEIGHT
PAGESIZE_HEIGHT	9493
KEYWORD HARDMARGIN_LEFT
HARDMARGIN_LEFT	0
KEYWORD HARDMARGIN_RIGHT
HARDMARGIN_RIGHT	0
KEYWORD HARDMARGIN_TOP
HARDMARGIN_TOP	0
KEYWORD HARDMARGIN_BOTTOM
HARDMARGIN_BOTTOM	0
KEYWORD USE_FULL_PAGESIZE
USE_FULL_PAGESIZE	0
KEYWORD ISIS_XL_FORMAT
ISIS_XL_FORMAT	0
KEYWORD REPEAT_PATCH_MEASURE_COUNT
REPEAT_PATCH_MEASURE_COUNT	1
KEYWORD MEASURINGTYPE
MEASURINGTYPE	0
KEYWORD POSITIONING
POSITIONING	1
KEYWORD DEVICEMODE
DEVICEMODE	0
KEYWORD ZEBRA_RULER_MODE
ZEBRA_RULER_MODE	1
KEYWORD LOWRES
LOWRES	0
KEYWORD ILLUMINATION_CONDITION
ILLUMINATION_CONDITION	0
KEYWORD PAPERSIZE_WIDTH
PAPERSIZE_WIDTH	414
KEYWORD PAPERSIZE_HEIGHT
PAPERSIZE_HEIGHT	9493
KEYWORD PROCESSCOLOR_ID
PROCESSCOLOR_ID"4 1 Cyan"
PROCESSCOLOR_ID"4 2 Magenta"
PROCESSCOLOR_ID"4 3 Yellow"
PROCESSCOLOR_ID"4 4 Black"
BEGIN_DATA_FORMAT
SAMPLE_ID	CMYK_C	CMYK_M	CMYK_Y	CMYK_K
END_DATA_FORMAT
BEGIN_DATA
1	0	0	0	0	
2	25	0	0	0	
3	50	0	0	0	
4	75	0	0	0	
5	100	0	0	0	
6	0	25	0	0	
7	25	25	0	0	
8	50	25	0	0	
9	75	25	0	0	
10	100	25	0	0	
11	0	50	0	0	
12	25	50	0	0	
13	50	50	0	0	
14	75	50	0	0	
15	100	50	0	0	
16	0	75	0	0	
17	25	75	0	0	
18	50	75	0	0	
19	75	75	0	0	
20	100	75	0	0	
21	0	100	0	0	
22	25	100	0	0	
23	50	100	0	0	
24	75	100	0	0	
25	100	100	0	0	
26	0	0	25	0	
27	25	0	25	0	
28	50	0	25	0	
29	75	0	25	0	
30	100	0	25	0	
31	0	25	25	0	
32	25	25	25	0	
33	50	25	25	0	
34	75	25	25	0	
35	100	25	25	0	
36	0	50	25	0	
37	25	50	25	0	
38	50	50	25	0	
39	75	50	25	0	
40	100	50	25	0	
41	0	75	25	0	
42	25	75	25	0	
43	50	75	25	0	
44	75	75	25	0	
45	100	75	25	0	
46	0	100	25	0	
47	25	100	25	0	
48	50	100	25	0	
49	75	100	25	0	
50	100	100	25	0	
51	0	0	50	0	
52	25	0	50	0	
53	50	0	50	0	
54	75	0	50	0	
55	100	0	50	0	
56	0	25	50	0	
57	25	25	50	0	
58	50	25	50	0	
59	75	25	50	0	
60	100	25	50	0	
61	0	50	50	0	
62	25	50	50	0	
63	50	50	50	0	
64	75	50	50	0	
65	100	50	50	0	
66	0	75	50	0	
67	25	75	50	0	
68	50	75	50	0	
69	75	75	50	0	
70	100	75	50	0	
71	0	100	50	0	
72	25	100	50	0	
73	50	100	50	0	
74	75	100	50	0	
75	100	100	50	0	
76	0	0	75	0	
77	25	0	75	0	
78	50	0	75	0	
79	75	0	75	0	
80	100	0	75	0	
81	0	25	75	0	
82	25	25	75	0	
83	50	25	75	0	
84	75	25	75	0	
85	100	25	75	0	
86	0	50	75	0	
87	25	50	75	0	
88	50	50	75	0	
89	75	50	75	0	
90	100	50	75	0	
91	0	75	75	0	
92	25	75	75	0	
93	50	75	75	0	
94	75	75	75	0	
95	100	75	75	0	
96	0	100	75	0	
97	25	100	75	0	
98	50	100	75	0	
99	75	100	75	0	
100	100	100	75	0	
101	0	0	100	0	
102	25	0	100	0	
103	50	0	100	0	
104	75	0	100	0	
105	100	0	100	0	
106	0	25	100	0	
107	25	25	100	0	
108	50	25	100	0	
109	75	25	100	0	
110	100	25	100	0	
111	0	50	100	0	
112	25	50	100	0	
113	50	50	100	0	
114	75	50	100	0	
115	100	50	100	0	
116	0	75	100	0	
117	25	75	100	0	
118	50	75	100	0	
119	75	75	100	0	
120	100	75	100	0	
121	0	100	100	0	
122	25	100	100	0	
123	50	100	100	0	
124	75	100	100	0	
125	100	100	100	0	
126	100	0	100	50	
127	0	0	100	50	
128	100	100	100	50	
129	0	100	100	50	
130	100	0	0	50	
131	0	100	0	50	
132	100	100	0	50	
133	100	0	100	100	
134	0	0	100	100	
135	100	100	100	100	
136	0	100	100	100	
137	100	0	0	100	
138	0	100	0	100	
139	100	100	0	100	
140	50	50	50	50	
141	10	0	0	0	
142	20	0	0	0	
143	30	0	0	0	
144	40	0	0	0	
145	50	0	0	0	
146	60	0	0	0	
147	70	0	0	0	
148	80	0	0	0	
149	90	0	0	0	
150	100	0	0	0	
151	0	10	0	0	
152	0	20	0	0	
153	0	30	0	0	
154	0	40	0	0	
155	0	50	0	0	
156	0	60	0	0	
157	0	70	0	0	
158	0	80	0	0	
159	0	90	0	0	
160	0	100	0	0	
161	0	0	10	0	
162	0	0	20	0	
163	0	0	30	0	
164	0	0	40	0	
165	0	0	50	0	
166	0	0	60	0	
167	0	0	70	0	
168	0	0	80	0	
169	0	0	90	0	
170	0	0	100	0	
171	0	0	0	10	
172	0	0	0	20	
173	0	0	0	30	
174	0	0	0	40	
175	0	0	0	50	
176	0	0	0	60	
177	0	0	0	70	
178	0	0	0	80	
179	0	0	0	90	
180	0	0	0	100	
END_DATA
