TestChart/EPSON_P900_Series/HP_Premeium_Plain/TotalInkLimit.it8
KEYWORD QUALITY_MODE
QUALITY_MODE 1
KEYWORD CHART_W
CHART_W 2548
KEYWORD CHART_H
CHART_H 2352
KEYWORD PATCH_SIZE_X
PATCH_SIZE_X 9600
KEYWORD PATCH_SIZE_Y
PATCH_SIZE_Y 9600
KEYWORD GAP_SIZE
GAP_SIZE 1800
KEYWORD BORDER_PATCHES
BORDER_PATCHES 1
KEYWORD DEVICE
DEVICE 15
KEYWORD ORIGINAL_NUMBER_OF_SETS
ORIGINAL_NUMBER_OF_SETS 100
KEYWORD PATCHES_PER_PAGE
PATCHES_PER_PAGE 102
KEYWORD NUMBER_OF_STRIPS
NUMBER_OF_STRIPS 6
KEYWORD NUMBER_OF_COLS
NUMBER_OF_COLS 17
NUMBER_OF_SETS 102
KEYWORD RANDOMIZED_PATCHES
RANDOMIZED_PATCHES	0
KEYWORD USE_RANDOMIZED_REFERENCEFILE
USE_RANDOMIZED_REFERENCEFILE	0
KEYWORD PRINTERID
PRINTERID	3239
KEYWORD PAGESIZE_WIDTH
PAGESIZE_WIDTH	414
KEYWORD PAGESIZE_HEIGHT
PAGESIZE_HEIGHT	9493
KEYWORD HARDMARGIN_LEFT
HARDMARGIN_LEFT	0
KEYWORD HARDMARGIN_RIGHT
HARDMARGIN_RIGHT	0
KEYWORD HARDMARGIN_TOP
HARDMARGIN_TOP	0
KEYWORD HARDMARGIN_BOTTOM
HARDMARGIN_BOTTOM	0
KEYWORD USE_FULL_PAGESIZE
USE_FULL_PAGESIZE	0
KEYWORD ISIS_XL_FORMAT
ISIS_XL_FORMAT	0
KEYWORD REPEAT_PATCH_MEASURE_COUNT
REPEAT_PATCH_MEASURE_COUNT	1
KEYWORD MEASURINGTYPE
MEASURINGTYPE	0
KEYWORD POSITIONING
POSITIONING	1
KEYWORD DEVICEMODE
DEVICEMODE	0
KEYWORD ZEBRA_RULER_MODE
ZEBRA_RULER_MODE	1
KEYWORD LOWRES
LOWRES	0
KEYWORD ILLUMINATION_CONDITION
ILLUMINATION_CONDITION	0
KEYWORD PAPERSIZE_WIDTH
PAPERSIZE_WIDTH	414
KEYWORD PAPERSIZE_HEIGHT
PAPERSIZE_HEIGHT	9493
KEYWORD PROCESSCOLOR_ID
PROCESSCOLOR_ID"4 1 Cyan"
PROCESSCOLOR_ID"4 2 Magenta"
PROCESSCOLOR_ID"4 3 Yellow"
PROCESSCOLOR_ID"4 4 Black"
BEGIN_DATA_FORMAT
SAMPLE_ID	CMYK_C	CMYK_M	CMYK_Y	CMYK_K
END_DATA_FORMAT
BEGIN_DATA
1	33.33333333	33.33333333	33.33333333	0	
2	34.90196078	35.29411765	34.90196078	0	
3	36.47058824	36.8627451	36.8627451	0	
4	38.43137255	38.43137255	38.43137255	0	
5	40	40.39215686	40	0	
6	41.56862745	41.96078431	41.96078431	0	
7	43.52941176	43.52941176	43.52941176	0	
8	45.09803922	45.49019608	45.09803922	0	
9	46.66666667	47.05882353	47.05882353	0	
10	48.62745098	48.62745098	48.62745098	0	
11	50.19607843	50.58823529	50.19607843	0	
12	51.76470588	52.15686275	52.15686275	0	
13	53.7254902	53.7254902	53.7254902	0	
14	55.29411765	55.68627451	55.29411765	0	
15	56.8627451	57.25490196	57.25490196	0	
16	58.82352941	58.82352941	58.82352941	0	
17	60.39215686	60.78431373	60.39215686	0	
18	61.96078431	62.35294118	62.35294118	0	
19	63.92156863	63.92156863	63.92156863	0	
20	65.49019608	65.88235294	65.49019608	0	
21	67.05882353	67.45098039	67.45098039	0	
22	69.01960784	69.01960784	69.01960784	0	
23	70.58823529	70.98039216	70.58823529	0	
24	72.15686275	72.54901961	72.54901961	0	
25	74.11764706	74.11764706	74.11764706	0	
26	75.68627451	76.07843137	75.68627451	0	
27	77.25490196	77.64705882	77.64705882	0	
28	79.21568627	79.21568627	79.21568627	0	
29	80.78431373	81.17647059	80.78431373	0	
30	82.35294118	82.74509804	82.74509804	0	
31	84.31372549	84.31372549	84.31372549	0	
32	85.88235294	86.2745098	85.88235294	0	
33	87.45098039	87.84313725	87.84313725	0	
34	89.41176471	89.41176471	89.41176471	0	
35	90.98039216	91.37254902	90.98039216	0	
36	92.54901961	92.94117647	92.94117647	0	
37	94.50980392	94.50980392	94.50980392	0	
38	96.07843137	96.47058824	96.07843137	0	
39	97.64705882	98.03921569	98.03921569	0	
40	99.60784314	99.60784314	99.60784314	0	
41	25.09803922	25.09803922	24.70588235	25.09803922	
42	26.2745098	26.2745098	26.2745098	26.2745098	
43	27.45098039	27.45098039	27.45098039	27.84313725	
44	29.01960784	28.62745098	28.62745098	29.01960784	
45	30.19607843	30.19607843	29.80392157	30.19607843	
46	31.37254902	31.37254902	31.37254902	31.37254902	
47	32.54901961	32.54901961	32.54901961	32.94117647	
48	34.11764706	33.7254902	33.7254902	34.11764706	
49	35.29411765	35.29411765	34.90196078	35.29411765	
50	36.47058824	36.47058824	36.47058824	36.47058824	
51	37.64705882	37.64705882	37.64705882	38.03921569	
52	39.21568627	38.82352941	38.82352941	39.21568627	
53	40.39215686	40.39215686	40	40.39215686	
54	41.56862745	41.56862745	41.56862745	41.56862745	
55	42.74509804	42.74509804	42.74509804	43.1372549	
56	44.31372549	43.92156863	43.92156863	44.31372549	
57	45.49019608	45.49019608	45.09803922	45.49019608	
58	46.66666667	46.66666667	46.66666667	46.66666667	
59	47.84313725	47.84313725	47.84313725	48.23529412	
60	49.41176471	49.01960784	49.01960784	49.41176471	
61	50.58823529	50.58823529	50.19607843	50.58823529	
62	51.76470588	51.76470588	51.76470588	51.76470588	
63	52.94117647	52.94117647	52.94117647	53.33333333	
64	54.50980392	54.11764706	54.11764706	54.50980392	
65	55.68627451	55.68627451	55.29411765	55.68627451	
66	56.8627451	56.8627451	56.8627451	56.8627451	
67	58.03921569	58.03921569	58.03921569	58.43137255	
68	59.60784314	59.21568627	59.21568627	59.60784314	
69	60.78431373	60.78431373	60.39215686	60.78431373	
70	61.96078431	61.96078431	61.96078431	61.96078431	
71	63.1372549	63.1372549	63.1372549	63.52941176	
72	64.70588235	64.31372549	64.31372549	64.70588235	
73	65.88235294	65.88235294	65.49019608	65.88235294	
74	67.05882353	67.05882353	67.05882353	67.05882353	
75	68.23529412	68.23529412	68.23529412	68.62745098	
76	69.80392157	69.41176471	69.41176471	69.80392157	
77	70.98039216	70.98039216	70.58823529	70.98039216	
78	72.15686275	72.15686275	72.15686275	72.15686275	
79	73.33333333	73.33333333	73.33333333	73.7254902	
80	74.90196078	74.50980392	74.50980392	74.90196078	
81	76.07843137	76.07843137	75.68627451	76.07843137	
82	77.25490196	77.25490196	77.25490196	77.25490196	
83	78.43137255	78.43137255	78.43137255	78.82352941	
84	80	79.60784314	79.60784314	80	
85	81.17647059	81.17647059	80.78431373	81.17647059	
86	82.35294118	82.35294118	82.35294118	82.35294118	
87	83.52941176	83.52941176	83.52941176	83.92156863	
88	85.09803922	84.70588235	84.70588235	85.09803922	
89	86.2745098	86.2745098	85.88235294	86.2745098	
90	87.45098039	87.45098039	87.45098039	87.45098039	
91	88.62745098	88.62745098	88.62745098	89.01960784	
92	90.19607843	89.80392157	89.80392157	90.19607843	
93	91.37254902	91.37254902	90.98039216	91.37254902	
94	92.54901961	92.54901961	92.54901961	92.54901961	
95	93.7254902	93.7254902	93.7254902	94.11764706	
96	95.29411765	94.90196078	94.90196078	95.29411765	
97	96.47058824	96.47058824	96.07843137	96.47058824	
98	97.64705882	97.64705882	97.64705882	97.64705882	
99	98.82352941	98.82352941	98.82352941	99.21568627	
100	100	100	100	100	
101	0	0	0	0	
102	0	0	0	0	
END_DATA
