Measurements/EPSON_P900_Series/HP_Premeium_Plain/InkLimitChannel_WithXYZData.it8
CGATS.17
BORDER_PATCHES	1
KEYWORD	CHART_H
CHART_H	"1150"
KEYWORD	CHART_W
CHART_W	"2320"
DEVICE	15
KEYWORD	DEVICEMODE
DEVICEMODE	"0"
KEYWORD	GAP_SIZE
GAP_SIZE	"1800"
KEYWORD	HARDMARGIN_BOTTOM
HARDMARGIN_BOTTOM	"0"
KEYWORD	HARDMARGIN_LEFT
HARDMARGIN_LEFT	"0"
KEYWORD	HARDMARGIN_RIGHT
HARDMARGIN_RIGHT	"0"
KEYWORD	HARDMARGIN_TOP
HARDMARGIN_TOP	"0"
KEYWORD	ILLUMINATION_CONDITION
ILLUMINATION_CONDITION	"0"
KEYWORD	ISIS_XL_FORMAT
ISIS_XL_FORMAT	"0"
KEYWORD	LOWRES
LOWRES	"0"
KEYWORD	MEASURINGTYPE
MEASURINGTYPE	"0"
NUMBER_OF_COLS	15
NUMBER_OF_SETS	120
NUMBER_OF_STRIPS	8
KEYWORD	ORIGINAL_NUMBER_OF_SETS
ORIGINAL_NUMBER_OF_SETS	120
KEYWORD	PAGESIZE_HEIGHT
PAGESIZE_HEIGHT	"9493"
KEYWORD	PAGESIZE_WIDTH
PAGESIZE_WIDTH	"414"
KEYWORD	PAPERSIZE_HEIGHT
PAPERSIZE_HEIGHT	"9493"
KEYWORD	PAPERSIZE_WIDTH
PAPERSIZE_WIDTH	"414"
KEYWORD	PATCHES_PER_PAGE
PATCHES_PER_PAGE	120
KEYWORD	PATCH_SIZE_X
PATCH_SIZE_X	"9600"
KEYWORD	PATCH_SIZE_Y
PATCH_SIZE_Y	"9600"
KEYWORD	POSITIONING
POSITIONING	"1"
KEYWORD	PRINTERID
PRINTERID	"3239"
PROCESSCOLOR_ID	"4 1 Cyan"
PROCESSCOLOR_ID	"4 2 Magenta"
PROCESSCOLOR_ID	"4 3 Yellow"
PROCESSCOLOR_ID	"4 4 Black"
KEYWORD	QUALITY_MODE
QUALITY_MODE	"1"
KEYWORD	RANDOMIZED_PATCHES
RANDOMIZED_PATCHES	"0"
KEYWORD	REPEAT_PATCH_MEASURE_COUNT
REPEAT_PATCH_MEASURE_COUNT	"1"
KEYWORD	USE_FULL_PAGESIZE
USE_FULL_PAGESIZE	"0"
KEYWORD	USE_RANDOMIZED_REFERENCEFILE
USE_RANDOMIZED_REFERENCEFILE	"0"
KEYWORD	ZEBRA_RULER_MODE
ZEBRA_RULER_MODE	1
MANUFACTURER	"EFI"
KEYWORD	UV_CUT_MODE
UV_CUT_MODE	0
NUMBER_OF_FIELDS	44
BEGIN_DATA_FORMAT
SAMPLE_ID	CMYK_C	CMYK_M	CMYK_Y	CMYK_K	XYZ_X	XYZ_Y	XYZ_Z	SPECTRAL_380	SPECTRAL_390	SPECTRAL_400	SPECTRAL_410	SPECTRAL_420	SPECTRAL_430	SPECTRAL_440	SPECTRAL_450	SPECTRAL_460	SPECTRAL_470	SPECTRAL_480	SPECTRAL_490	SPECTRAL_500	SPECTRAL_510	SPECTRAL_520	SPECTRAL_530	SPECTRAL_540	SPECTRAL_550	SPECTRAL_560	SPECTRAL_570	SPECTRAL_580	SPECTRAL_590	SPECTRAL_600	SPECTRAL_610	SPECTRAL_620	SPECTRAL_630	SPECTRAL_640	SPECTRAL_650	SPECTRAL_660	SPECTRAL_670	SPECTRAL_680	SPECTRAL_690	SPECTRAL_700	SPECTRAL_710	SPECTRAL_720	SPECTRAL_730
END_DATA_FORMAT
BEGIN_DATA
1	100	0	0	0	27.73827	35.4968	63.15625	0.5328314	0.4386494	0.3752609	0.4471699	0.5856034	0.6870425	0.7664262	0.8096433	0.8206819	0.8175354	0.8008298	0.7736901	0.7358067	0.6828638	0.6101984	0.5223961	0.4294189	0.3404092	0.2652665	0.2169666	0.1906664	0.1773441	0.1681846	0.1632236	0.1638177	0.1664854	0.1716123	0.1818538	0.1946169	0.2010641	0.1985947	0.1912983	0.181177	0.1750971	0.1828331	0.2077314
2	98.0464	0	0	0	28.08477	36.1155	63.53406	0.4886793	0.3910558	0.3668509	0.4418578	0.5844448	0.6910626	0.7710422	0.8135627	0.8253838	0.8227437	0.8070611	0.7807677	0.743578	0.6916983	0.6203714	0.5332694	0.4399803	0.3493513	0.2719013	0.2215636	0.1939416	0.1798321	0.1701075	0.1647672	0.1653271	0.1681165	0.1734855	0.1842487	0.1978335	0.2048177	0.2023207	0.1946594	0.1837051	0.1769705	0.1848347	0.211053
3	94.89621	0	0	0	30.30888	38.57641	64.55652	0.4302234	0.3863163	0.3645634	0.454103	0.6043061	0.7095216	0.7847646	0.8237982	0.8348609	0.8323214	0.817442	0.7929957	0.7586354	0.7103072	0.643203	0.5597763	0.4689026	0.3788241	0.300293	0.2484073	0.2193924	0.2042993	0.1935988	0.1875048	0.1879167	0.1908859	0.196678	0.208347	0.2230356	0.2305595	0.2279077	0.2195283	0.2075462	0.1996608	0.2075398	0.2354485
4	90.20757	0	0	0	32.46286	41.11751	65.54547	0.4876369	0.4038788	0.3779642	0.4616106	0.6219716	0.7287045	0.7986978	0.8330215	0.8430141	0.8408032	0.8275554	0.8056605	0.7747856	0.7307765	0.6689714	0.5901995	0.501689	0.4112349	0.3300006	0.2751165	0.2436896	0.2270653	0.2151212	0.208239	0.2085043	0.2118252	0.2183635	0.2313935	0.2477929	0.256445	0.2536652	0.2443561	0.2309732	0.2217555	0.2301848	0.2608295
5	85.10379	0	0	0	35.5448	44.37039	66.60772	0.3469223	0.3411801	0.3649546	0.4757462	0.6403249	0.7484053	0.8130894	0.8437296	0.8527902	0.8504834	0.8384662	0.8188504	0.7909839	0.7512133	0.6949388	0.6217083	0.5377592	0.4496649	0.3684583	0.3124399	0.279464	0.2617377	0.248907	0.2415146	0.2419665	0.2456744	0.2529097	0.2672549	0.2851943	0.2946416	0.2918554	0.2818786	0.267117	0.2566714	0.2651918	0.2981414
6	80	0	0	0	38.24413	47.15114	67.2656	0.3170658	0.3451617	0.3765544	0.4872383	0.6554215	0.7625492	0.822175	0.8491273	0.8573844	0.8554827	0.8445119	0.8268113	0.8017074	0.7658074	0.7146903	0.6471481	0.5679277	0.4827021	0.4021637	0.3454569	0.3114256	0.2928	0.2792684	0.2714011	0.2720919	0.2764556	0.2845206	0.2999842	0.3191983	0.3293991	0.3265516	0.3161179	0.3004687	0.2890692	0.2977642	0.3323522
7	74.89621	0	0	0	40.99566	49.88212	67.86702	0.4017511	0.3897752	0.3863041	0.4957259	0.669091	0.7747638	0.8302804	0.8542044	0.8618962	0.8601812	0.8501426	0.8340793	0.8111542	0.7785195	0.7320966	0.6699546	0.5958459	0.5141542	0.4352153	0.3786258	0.3439856	0.3248704	0.3109048	0.3029351	0.3040125	0.3088359	0.3176996	0.3343543	0.3548035	0.3655916	0.3627799	0.3518591	0.3354687	0.3233387	0.3323188	0.3685442
8	70.20757	0	0	0	43.55278	52.333	68.36966	0.3807212	0.3792383	0.3887345	0.5044321	0.6787235	0.7845055	0.8371047	0.8589178	0.866057	0.8643059	0.8549252	0.8400359	0.818906	0.7888581	0.7463421	0.6886938	0.6191577	0.54128	0.4645709	0.4089253	0.3743199	0.3550462	0.3409588	0.3330041	0.334555	0.3400952	0.3498679	0.3672991	0.3885624	0.3997585	0.3969421	0.3859614	0.3692664	0.3567289	0.3657136	0.4022807
9	65.10379	0	0	0	46.24998	54.94998	68.93785	0.3546422	0.3701343	0.3881591	0.5097387	0.6897951	0.7956693	0.8450128	0.8641555	0.8708435	0.8692132	0.8603965	0.8467166	0.8276828	0.8003595	0.7619423	0.7092254	0.644752	0.5707774	0.4962014	0.4411342	0.4061849	0.3865538	0.3721373	0.3641835	0.3662	0.3726627	0.3834696	0.4022697	0.4248061	0.4366364	0.4339825	0.4227038	0.4052686	0.3921626	0.4014501	0.4394142
10	61.17216	0	0	0	48.68424	57.13848	69.01711	0.3737198	0.3667554	0.3900484	0.5103461	0.6932285	0.7992136	0.846275	0.8640712	0.8702133	0.8685213	0.860436	0.8480749	0.8303987	0.8053731	0.7704495	0.7224366	0.6630511	0.5938373	0.5231621	0.4702731	0.4359945	0.4165517	0.4023894	0.3947377	0.3972953	0.4045425	0.4162292	0.4355903	0.4585829	0.470724	0.4681579	0.4568904	0.4393988	0.4261008	0.4356084	0.4734786
11	56.06838	0	0	0	51.2116	59.5174	69.65195	0.3453291	0.3849874	0.3987595	0.5190643	0.7049599	0.8105329	0.8544081	0.870482	0.8763752	0.8745713	0.86681	0.8552562	0.8389136	0.8158705	0.7840561	0.7398301	0.6846945	0.6194581	0.5512787	0.4995992	0.4655738	0.4461426	0.4318815	0.4244416	0.4275006	0.4355378	0.4482397	0.468626	0.4924045	0.5049085	0.5025901	0.4912843	0.4737089	0.4599764	0.4692686	0.5081117
12	52.16117	0	0	0	53.24998	61.26291	69.37657	0.3567054	0.3607889	0.3908298	0.5147435	0.7006111	0.8084765	0.851059	0.8657683	0.871907	0.8708072	0.8639519	0.8531107	0.8379194	0.8168542	0.7882444	0.7481362	0.6977724	0.6371012	0.572835	0.523879	0.4910567	0.4722834	0.4585276	0.4516603	0.4553798	0.4641039	0.4774727	0.4982247	0.522104	0.5346478	0.5325983	0.5215095	0.5042012	0.4908233	0.500046	0.5377974
13	47.83883	0	0	0	55.72284	63.43322	69.62969	0.3218607	0.3577324	0.3896857	0.5170536	0.7058077	0.8142101	0.8548839	0.8681517	0.8736238	0.8723897	0.8658424	0.8558926	0.8418636	0.8227015	0.7969275	0.7605062	0.7145488	0.6587055	0.5986538	0.5524082	0.5208404	0.5025436	0.4893128	0.4829127	0.4873258	0.4968864	0.5110043	0.532146	0.555981	0.5684866	0.5666195	0.5559234	0.539173	0.5262137	0.5350639	0.5715763
14	43.93162	0	0	0	56.94587	64.52211	69.57076	0.306963	0.3523657	0.3883216	0.5156676	0.7026072	0.8128359	0.8542194	0.8668235	0.8726298	0.8718033	0.8657082	0.8562606	0.842863	0.8246121	0.8004816	0.766432	0.7232841	0.6700448	0.6119335	0.5670425	0.5361546	0.5181921	0.5052073	0.4989848	0.5034083	0.5130379	0.5273782	0.5486071	0.5725894	0.5852038	0.5834904	0.572883	0.5561612	0.5430856	0.5520822	0.5885518
15	40	0	0	0	58.66377	66.05328	69.98377	0.2775989	0.335675	0.3935347	0.5210695	0.7106084	0.8200432	0.8593838	0.8713225	0.8767387	0.8758778	0.8698379	0.8608416	0.84813	0.8308403	0.8081908	0.7760527	0.7352831	0.6846953	0.6292168	0.5863041	0.556457	0.5390575	0.5265393	0.5205684	0.5250116	0.5347775	0.5492939	0.5704856	0.5940996	0.6066008	0.6050923	0.5949743	0.5787873	0.5661056	0.5750445	0.6105053
16	36.06838	0	0	0	60.79876	67.6997	70.14504	0.3516478	0.403453	0.4058604	0.5339385	0.7238267	0.8267991	0.8615205	0.8720163	0.8765153	0.8752176	0.8693799	0.8607789	0.8487182	0.832476	0.8114778	0.7816632	0.7442785	0.6983255	0.6476766	0.6086534	0.5811153	0.5649227	0.5535063	0.5490121	0.5551052	0.5665011	0.5824343	0.603968	0.6273223	0.6395341	0.6384934	0.6291765	0.6142158	0.6024897	0.6110906	0.6449939
17	32.16117	0	0	0	62.49192	69.14223	70.51174	0.3727278	0.3944995	0.4176853	0.5359848	0.7256103	0.8306451	0.866069	0.8763682	0.8812242	0.8798225	0.8738735	0.8654536	0.8537502	0.8378963	0.8178624	0.7896132	0.754438	0.7111014	0.6634182	0.6266686	0.6003672	0.5848667	0.5742509	0.570472	0.5773886	0.5898352	0.6066881	0.6286742	0.6521429	0.6645746	0.663953	0.6551453	0.6408183	0.6293587	0.6376225	0.670617
18	27.83883	0	0	0	64.58781	70.9022	70.92105	0.3366742	0.3757061	0.4215802	0.5453653	0.7340501	0.8378135	0.8711557	0.8807694	0.8853521	0.8837112	0.8778288	0.8697564	0.8585069	0.8436464	0.8249865	0.7987579	0.7664202	0.7266472	0.6826234	0.6490887	0.6247306	0.6103292	0.6005468	0.597663	0.605188	0.6184571	0.6359192	0.6578562	0.68076	0.692858	0.692611	0.6844226	0.6711627	0.6606477	0.6684926	0.6993449
19	23.93162	0	0	0	66.56446	72.52655	71.11592	0.3119504	0.3848035	0.4086991	0.5449111	0.7370533	0.8414314	0.8738301	0.882765	0.8870676	0.8856533	0.8798993	0.8721482	0.8616467	0.8475978	0.8302608	0.8062555	0.7767256	0.7405198	0.7004495	0.6703313	0.6479335	0.6347585	0.6260465	0.6240067	0.6323754	0.6464068	0.6645511	0.6864109	0.7087616	0.7204848	0.7205621	0.7131044	0.700974	0.6913639	0.6988331	0.7276061
20	20	0	0	0	68.639	74.14825	71.06098	0.28102	0.3699453	0.4062504	0.5433733	0.7391877	0.8423572	0.8729457	0.8813452	0.8855052	0.8843387	0.8790282	0.8716857	0.8616624	0.848703	0.833029	0.8115583	0.7855196	0.7536884	0.7186027	0.6925857	0.6728096	0.6611586	0.6536894	0.6530055	0.6623123	0.677237	0.6958336	0.7173792	0.7387463	0.7499209	0.7505713	0.7440234	0.7335188	0.7250683	0.7320456	0.7582668
21	16.87424	0	0	0	70.04979	75.29336	71.41325	0.370308	0.4006867	0.4273441	0.5514093	0.7440176	0.8466713	0.8777025	0.8854207	0.8895975	0.8880991	0.8824237	0.8751511	0.8652148	0.8525869	0.8376136	0.8171361	0.7926681	0.7631465	0.7305525	0.7068315	0.688519	0.6776971	0.6710754	0.6711713	0.6812553	0.6971821	0.7168354	0.7386156	0.7599002	0.7709907	0.7718228	0.7658917	0.7561415	0.748194	0.7547979	0.77909
22	14.89621	0	0	0	71.06966	76.0953	71.21349	0.3461103	0.3840554	0.4140871	0.5492177	0.7407307	0.8438564	0.8748874	0.8826592	0.88679	0.8857769	0.8807462	0.873668	0.8644245	0.8525599	0.8385894	0.8195243	0.7969984	0.7696743	0.7395716	0.7180502	0.7011932	0.6912022	0.6853912	0.6861545	0.6967316	0.7127714	0.7323104	0.7535513	0.7739971	0.7846634	0.7857192	0.7804353	0.7714971	0.7643707	0.77069	0.7932556
23	12.16117	0	0	0	72.44438	77.14436	71.27674	0.3387876	0.3868281	0.4140334	0.5472826	0.7411564	0.8458167	0.8759398	0.8832213	0.8875804	0.8861157	0.8809163	0.8742231	0.8650663	0.8533457	0.8404523	0.8227695	0.8022331	0.7776791	0.7507854	0.7321156	0.7171893	0.7083657	0.7036214	0.70536	0.7165849	0.7333066	0.7534649	0.7745926	0.7943252	0.8046499	0.8062299	0.8016379	0.7938346	0.7875149	0.793646	0.8139595
24	10.20757	0	0	0	73.32666	77.78425	71.20597	0.3153179	0.3568789	0.4045029	0.5437779	0.7386435	0.8447343	0.8754125	0.8824868	0.8866377	0.8853936	0.8804042	0.8736044	0.8646248	0.853191	0.8407066	0.8239816	0.8047647	0.7819874	0.7574003	0.7409076	0.7273427	0.7194641	0.7155618	0.7181625	0.7301186	0.7475909	0.7683054	0.7894067	0.808659	0.8186897	0.8205497	0.8165368	0.8097259	0.8043227	0.8096731	0.8281229
25	7.838828	0	0	0	74.89099	79.01872	71.26136	0.3310753	0.3918625	0.4104583	0.5456417	0.7413909	0.8460738	0.8757867	0.8824608	0.8866295	0.8856528	0.8809375	0.8744605	0.8659495	0.8552644	0.8437244	0.8285385	0.8116501	0.7917039	0.7704154	0.757223	0.7458228	0.7392989	0.7366307	0.7403759	0.752787	0.770618	0.7913139	0.811492	0.8294721	0.8388016	0.8410175	0.8380705	0.8326825	0.8285323	0.833271	0.8488883
26	5.885226	0	0	0	76.19395	79.9885	71.29449	0.3019648	0.3661385	0.4223309	0.547869	0.7415851	0.8466948	0.8761367	0.8826804	0.8868959	0.8858828	0.8811377	0.8747599	0.8663525	0.8560349	0.8453539	0.8311966	0.8159515	0.7984434	0.7802345	0.77008	0.7607233	0.7555858	0.7541275	0.7589472	0.7723292	0.7908444	0.812134	0.8318846	0.8489019	0.8579245	0.8605514	0.8583731	0.8545042	0.85133	0.8556221	0.8682253
27	3.931624	0	0	0	76.69843	80.2383	70.73635	0.3207189	0.3723235	0.4148846	0.5333251	0.7285783	0.8393288	0.8695865	0.8757296	0.8804321	0.8798099	0.8752984	0.8691294	0.8610036	0.8510149	0.8410387	0.8281872	0.8145034	0.7989781	0.7831329	0.7751524	0.7674494	0.7634306	0.7630606	0.7687668	0.7826722	0.8017104	0.8228092	0.8417045	0.857623	0.8660365	0.8688536	0.8672984	0.8645008	0.8622525	0.8659491	0.8759297
28	3.125763	0	0	0	77.36449	80.79265	70.81487	0.3019886	0.3545578	0.4009494	0.5331334	0.7300953	0.8402693	0.8706086	0.8766335	0.8813006	0.8805273	0.8763479	0.8705605	0.8625345	0.8529232	0.843333	0.830905	0.8179418	0.8034652	0.7888459	0.7821336	0.7753435	0.7718343	0.7718759	0.7779637	0.7920617	0.810914	0.8321054	0.8507413	0.8661591	0.8741439	0.8772261	0.8760298	0.873655	0.8718685	0.8754475	0.8844944
29	1.953602	0	0	0	78.33512	81.62186	70.93502	0.2907999	0.3537497	0.4085176	0.5368486	0.7333083	0.8417406	0.8717545	0.8778058	0.8822469	0.8817509	0.8777506	0.8721359	0.8645147	0.8552966	0.8465436	0.8351947	0.8236345	0.8107245	0.7979524	0.7928513	0.7871968	0.7845408	0.7852452	0.7913747	0.8048688	0.8233418	0.8441462	0.86234	0.8770254	0.8847445	0.8877579	0.8871006	0.8855657	0.8844663	0.8876021	0.8950524
30	0	0	0	0	79.91391	82.93138	71.14009	0.2884721	0.3468975	0.4077714	0.540265	0.7374644	0.8455475	0.8744698	0.8798039	0.8841824	0.883532	0.8796557	0.8744442	0.8673663	0.8589383	0.85125	0.841458	0.8318135	0.8215613	0.8119091	0.8098093	0.806375	0.8050732	0.8067111	0.8131974	0.8264846	0.8446273	0.8648593	0.8817462	0.8949058	0.9016928	0.9050344	0.9052432	0.9053206	0.9053952	0.9078731	0.9127045
31	0	100	0	0	55.84022	39.68978	41.54308	0.1655765	0.2278388	0.3148035	0.4414086	0.5783255	0.6202462	0.5983493	0.5551828	0.5127261	0.4601253	0.3970196	0.3509943	0.3172185	0.2687997	0.2221197	0.2118697	0.2211561	0.2113312	0.2160773	0.2883338	0.4293399	0.5901189	0.705336	0.7665581	0.8038458	0.8333735	0.8588082	0.8774843	0.890978	0.8977311	0.9009984	0.9015056	0.9020703	0.9028298	0.904995	0.9100209
32	0	98.0464	0	0	56.72166	40.5971	42.72951	0.1642461	0.2193251	0.3040584	0.4473975	0.5888349	0.6333281	0.6132474	0.5708861	0.5287449	0.4760545	0.4115875	0.3642427	0.32944	0.2791295	0.2302528	0.2194395	0.2291	0.2187991	0.2235546	0.2985743	0.442792	0.6029255	0.7144553	0.7728018	0.8089923	0.8381539	0.8635186	0.8823395	0.8959773	0.9028568	0.9063411	0.9067346	0.9070129	0.9076328	0.9102936	0.9153914
33	0	94.89621	0	0	57.95212	42.33951	44.60767	0.1615715	0.2272427	0.3081878	0.4539151	0.60172	0.6513495	0.6345461	0.5943534	0.5537198	0.50188	0.4377243	0.3900726	0.3543711	0.3024038	0.251453	0.2397932	0.2497483	0.2386033	0.2432744	0.3204309	0.4646794	0.6189432	0.722792	0.7764549	0.810594	0.8390234	0.864293	0.8831512	0.8970567	0.9042487	0.9077219	0.9082118	0.9081667	0.9085749	0.9115202	0.9169508
34	0	90.20757	0	0	59.53254	44.48636	47.04103	0.1692232	0.2369915	0.324878	0.4680065	0.6220849	0.6761833	0.6625053	0.624559	0.5855643	0.5346742	0.470517	0.4222708	0.3853886	0.3309332	0.2767538	0.2639717	0.2742724	0.2622442	0.266653	0.3471434	0.4926461	0.6401799	0.7341506	0.7819858	0.8135011	0.840839	0.8657461	0.8843911	0.8982844	0.9053266	0.9086691	0.9090611	0.9090114	0.9095616	0.9122549	0.9175116
35	0	85.10379	0	0	61.30018	47.19836	49.68184	0.3225731	0.3313839	0.347504	0.4828812	0.6406887	0.7005197	0.6900775	0.6558187	0.6199737	0.5714371	0.5090862	0.461139	0.4239949	0.3682256	0.3119285	0.2980784	0.3085173	0.2955621	0.2995633	0.3811819	0.5233794	0.660341	0.7439089	0.7861437	0.815433	0.841876	0.86645	0.885246	0.8992319	0.9064407	0.9100605	0.9104712	0.9105797	0.9112162	0.9138137	0.9191379
36	0	80	0	0	63.21843	50.26098	52.2783	0.1798975	0.2768026	0.3494486	0.4892935	0.6566707	0.7220309	0.7160128	0.6862363	0.6538014	0.6087208	0.5497243	0.5031006	0.4662213	0.4101313	0.3526572	0.337978	0.3482523	0.3344398	0.3379708	0.4194826	0.5558366	0.6807196	0.7540167	0.7911818	0.8183596	0.8441933	0.8685172	0.8872076	0.9010995	0.9080607	0.9114358	0.9117094	0.9117031	0.9120461	0.9146484	0.9197934
37	0	74.89621	0	0	64.60803	52.6166	54.29797	0.2298711	0.274609	0.3443236	0.4971791	0.6689339	0.7383171	0.7358756	0.7094628	0.6802011	0.6378167	0.581382	0.5362138	0.4996349	0.4434526	0.3849347	0.3694533	0.3796423	0.3652146	0.3683825	0.4494798	0.5806087	0.695262	0.7600403	0.7930363	0.8185277	0.8435448	0.8675018	0.8860829	0.8999429	0.906977	0.9102756	0.9105653	0.9104232	0.9107577	0.9134177	0.9184492
38	0	70.20757	0	0	66.0554	55.04743	56.13597	0.1932227	0.2638546	0.3546182	0.5002525	0.6780949	0.7529742	0.7539557	0.7302576	0.7036352	0.6642638	0.6108125	0.5674974	0.5319962	0.476698	0.4185827	0.4027685	0.4125383	0.3977079	0.4003185	0.4793882	0.6038902	0.7091355	0.7670434	0.7967598	0.8207975	0.8451837	0.869071	0.887678	0.901557	0.9086223	0.9121114	0.9125671	0.9125344	0.912935	0.9155263	0.920552
39	0	65.10379	0	0	67.06546	56.97222	57.6854	0.1904302	0.2621679	0.3555736	0.505115	0.6837608	0.7631014	0.7679425	0.7474425	0.7238817	0.6877622	0.6375043	0.595726	0.5605044	0.5051485	0.4463558	0.4298202	0.4394147	0.4238419	0.4259726	0.5048543	0.623629	0.7188278	0.7693293	0.7957391	0.8186319	0.8425174	0.8661642	0.8847816	0.8986742	0.9058735	0.9094689	0.9097876	0.9095706	0.9099191	0.9125432	0.917677
40	0	61.17216	0	0	68.42976	59.28775	59.35547	0.2363545	0.2844775	0.3563268	0.5090119	0.6944813	0.7763656	0.7840212	0.7659495	0.7448426	0.711364	0.6643156	0.6245092	0.5905216	0.5368673	0.4792644	0.4625058	0.4713393	0.4555489	0.4570366	0.5325717	0.6437733	0.7304564	0.7755295	0.7997285	0.8216499	0.8452188	0.8688386	0.8875515	0.9015937	0.9089096	0.9125143	0.912829	0.9129316	0.9133055	0.915751	0.9207042
41	0	56.06838	0	0	69.92634	62.2199	61.15553	0.2291529	0.2857456	0.373856	0.5174171	0.7017825	0.7870588	0.7985753	0.7843537	0.7671477	0.7383192	0.6965386	0.660383	0.6286597	0.5780036	0.5229433	0.5063172	0.5141253	0.4981248	0.4987207	0.5691825	0.6687378	0.7426364	0.7801508	0.8009304	0.8212465	0.8438057	0.8667556	0.8851205	0.8990339	0.9061944	0.9096875	0.9099432	0.9099851	0.9101353	0.9130121	0.9180037
42	0	52.16117	0	0	70.68241	63.99917	62.15458	0.2571362	0.301146	0.3664039	0.5147071	0.7004842	0.7914979	0.806065	0.7945104	0.77979	0.7539941	0.7159456	0.6826948	0.6525761	0.6044369	0.5518635	0.5352778	0.5420212	0.5259464	0.5256279	0.5912616	0.6816542	0.7468336	0.7795144	0.798635	0.8182788	0.8407458	0.863905	0.882355	0.8962679	0.903534	0.9069177	0.9071977	0.9072479	0.9076827	0.9098387	0.9145974
43	0	47.83883	0	0	72.07032	66.59302	63.63582	0.2724003	0.3311777	0.3794458	0.5200236	0.7090032	0.8022762	0.81818	0.8090468	0.797561	0.7753044	0.7418621	0.7117918	0.6841565	0.6397013	0.590616	0.5742828	0.5796461	0.5637923	0.5625869	0.6222774	0.7019791	0.7574829	0.7849715	0.8019953	0.8206754	0.8424622	0.8650941	0.8831431	0.896876	0.9039616	0.9073566	0.907768	0.9076564	0.9079576	0.9104344	0.9151688
44	0	43.93162	0	0	73.13639	68.52691	64.68769	0.2090658	0.2905859	0.3701068	0.5189899	0.7128041	0.8083558	0.8269189	0.8200809	0.8106102	0.7910042	0.7608928	0.7333167	0.7073433	0.6653079	0.6185175	0.6025055	0.6072786	0.5914676	0.5897783	0.6456128	0.7178522	0.7665799	0.7904252	0.8055875	0.8229961	0.8439576	0.8659634	0.8838877	0.8974726	0.9044654	0.9078895	0.9081299	0.908025	0.9082227	0.9106814	0.9155065
45	0	40	0	0	73.98648	69.92028	65.53278	0.2679202	0.3240128	0.3708113	0.5259591	0.7211192	0.8161629	0.8351776	0.8290286	0.8202516	0.8021256	0.7736968	0.7476481	0.722919	0.6827908	0.6377634	0.6220958	0.6264676	0.6109251	0.6089351	0.6621379	0.7296193	0.7743999	0.7960561	0.8098787	0.8262033	0.845977	0.8674505	0.8850095	0.8984589	0.9054503	0.9088818	0.9091405	0.9091046	0.9094569	0.9118399	0.9168095
46	0	36.06838	0	0	74.51299	71.49992	66.38299	0.2362462	0.3643581	0.3963729	0.5383562	0.7320247	0.824562	0.8412302	0.8364347	0.8286121	0.8125777	0.787672	0.7646852	0.7427829	0.7073634	0.6673095	0.6519083	0.6536608	0.6388384	0.6356475	0.6805	0.7367293	0.7737975	0.7918941	0.8048026	0.8215434	0.8421441	0.8636475	0.8810148	0.894207	0.9007024	0.9038769	0.904064	0.9043897	0.9048827	0.9067684	0.9113315
47	0	32.16117	0	0	75.25715	72.87893	67.1572	0.2184107	0.3208252	0.3838507	0.5360019	0.7306787	0.8272581	0.8480043	0.8448212	0.8390172	0.8248484	0.8021279	0.7808523	0.7598693	0.7263464	0.688563	0.6732326	0.673973	0.6591688	0.6552152	0.6957596	0.7457696	0.7780442	0.7940747	0.8065769	0.8236353	0.8447044	0.866954	0.8850607	0.8990383	0.9061939	0.909751	0.910068	0.9101861	0.9107049	0.9130172	0.9179916
48	0	27.83883	0	0	75.99071	74.3247	68.0041	0.2895135	0.3787363	0.4007245	0.5379412	0.7356491	0.8334875	0.8552434	0.8534642	0.8490679	0.8366405	0.8161443	0.7968567	0.7773449	0.7465427	0.711853	0.6967515	0.6959782	0.6813344	0.6764509	0.7117506	0.7546213	0.7819444	0.795835	0.8075643	0.8244792	0.8457602	0.8684536	0.887063	0.9013486	0.9087228	0.9124948	0.9129093	0.91289	0.9132874	0.9157538	0.9207507
49	0	23.93162	0	0	76.51167	75.54219	68.45363	0.1535541	0.2908514	0.3724438	0.5311111	0.7334585	0.8349621	0.8583263	0.8576201	0.8543995	0.8439214	0.8261758	0.808906	0.7912777	0.7634761	0.7321045	0.7174835	0.7153669	0.7011006	0.6955297	0.7257968	0.7618581	0.7844993	0.796241	0.8073499	0.8241054	0.8452253	0.8679288	0.8864384	0.9007576	0.9082427	0.9119838	0.912302	0.9122227	0.9125968	0.9151515	0.9206119
50	0	20	0	0	77.22083	76.94841	69.21053	0.2568896	0.3266004	0.3921101	0.5395209	0.7383447	0.8404552	0.8643534	0.8650412	0.8630298	0.8542604	0.8389171	0.8234484	0.8072564	0.7825708	0.7546632	0.7403531	0.7367697	0.7228966	0.7165759	0.7415804	0.7705327	0.7885833	0.7983395	0.8086175	0.8252034	0.8461906	0.8687487	0.8872912	0.9017158	0.9090151	0.9127496	0.9131837	0.9131013	0.9133621	0.9159867	0.9215234
51	0	16.87424	0	0	77.76798	77.9998	69.65849	0.279044	0.3662658	0.3881066	0.5423499	0.7416828	0.8431835	0.8677019	0.8690553	0.8680248	0.8603811	0.846899	0.8330904	0.8183221	0.7958634	0.7707183	0.7570567	0.7525598	0.73911	0.7324549	0.753583	0.7775835	0.7924353	0.8007162	0.8104638	0.8266311	0.8473107	0.8696067	0.8880116	0.9020969	0.909528	0.9133223	0.913577	0.9135836	0.9138602	0.9165531	0.9221307
52	0	14.89621	0	0	77.95634	78.52013	69.91915	0.2066904	0.3366873	0.3941227	0.5389509	0.7413261	0.844404	0.8696965	0.8717139	0.8712311	0.8643561	0.8519285	0.8389651	0.8249595	0.8039941	0.7804511	0.7667341	0.7614062	0.7480907	0.7407457	0.7591816	0.7796884	0.7922627	0.7997357	0.8093452	0.8255565	0.8466024	0.869281	0.887994	0.9024413	0.9099193	0.9136431	0.9140282	0.9141751	0.9146194	0.9170561	0.9224462
53	0	12.16117	0	0	78.2088	79.23736	70.20021	0.3101607	0.3876373	0.388669	0.5380356	0.7386132	0.8443421	0.8709621	0.8742281	0.8748131	0.8691651	0.858152	0.8464374	0.8333647	0.8144696	0.7936129	0.780255	0.7736263	0.7605329	0.7526619	0.7670254	0.7826356	0.7923114	0.7986106	0.8080401	0.8242638	0.8454312	0.8684958	0.8874285	0.9019607	0.9095948	0.913504	0.913864	0.9139028	0.9142697	0.9166993	0.9220367
54	0	10.20757	0	0	78.34826	79.74532	70.19624	0.242827	0.3401706	0.3931106	0.5366808	0.7375178	0.8422701	0.8693304	0.8728452	0.874208	0.8697492	0.860235	0.8497823	0.8379461	0.82092	0.8023985	0.7896787	0.782737	0.7701463	0.7618791	0.7732801	0.7854412	0.7930108	0.7983691	0.8072842	0.8230071	0.8435171	0.8657376	0.8840532	0.8982159	0.905617	0.909351	0.9096158	0.9093354	0.9097657	0.9123819	0.9176674
