Measurements/EPSON_P900_Series/HP_Premeium_Plain/Lin4c_WithXYZData.it8
CGATS.17
BORDER_PATCHES	1
KEYWORD	CHART_H
CHART_H	"1150"
KEYWORD	CHART_W
CHART_W	"2320"
DEVICE	15
KEYWORD	DEVICEMODE
DEVICEMODE	"0"
KEYWORD	GAP_SIZE
GAP_SIZE	"1800"
KEYWORD	HARDMARGIN_BOTTOM
HARDMARGIN_BOTTOM	"0"
KEYWORD	HARDMARGIN_LEFT
HARDMARGIN_LEFT	"0"
KEYWORD	HARDMARGIN_RIGHT
HARDMARGIN_RIGHT	"0"
KEYWORD	HARDMARGIN_TOP
HARDMARGIN_TOP	"0"
KEYWORD	ILLUMINATION_CONDITION
ILLUMINATION_CONDITION	"0"
KEYWORD	ISIS_XL_FORMAT
ISIS_XL_FORMAT	"0"
KEYWORD	LOWRES
LOWRES	"0"
KEYWORD	MEASURINGTYPE
MEASURINGTYPE	"0"
NUMBER_OF_COLS	15
NUMBER_OF_SETS	120
NUMBER_OF_STRIPS	8
KEYWORD	ORIGINAL_NUMBER_OF_SETS
ORIGINAL_NUMBER_OF_SETS	120
KEYWORD	PAGESIZE_HEIGHT
PAGESIZE_HEIGHT	"9493"
KEYWORD	PAGESIZE_WIDTH
PAGESIZE_WIDTH	"414"
KEYWORD	PAPERSIZE_HEIGHT
PAPERSIZE_HEIGHT	"9493"
KEYWORD	PAPERSIZE_WIDTH
PAPERSIZE_WIDTH	"414"
KEYWORD	PATCHES_PER_PAGE
PATCHES_PER_PAGE	120
KEYWORD	PATCH_SIZE_X
PATCH_SIZE_X	"9600"
KEYWORD	PATCH_SIZE_Y
PATCH_SIZE_Y	"9600"
KEYWORD	POSITIONING
POSITIONING	"1"
KEYWORD	PRINTERID
PRINTERID	"3239"
PROCESSCOLOR_ID	"4 1 Cyan"
PROCESSCOLOR_ID	"4 2 Magenta"
PROCESSCOLOR_ID	"4 3 Yellow"
PROCESSCOLOR_ID	"4 4 Black"
KEYWORD	QUALITY_MODE
QUALITY_MODE	"1"
KEYWORD	RANDOMIZED_PATCHES
RANDOMIZED_PATCHES	"0"
KEYWORD	REPEAT_PATCH_MEASURE_COUNT
REPEAT_PATCH_MEASURE_COUNT	"1"
KEYWORD	USE_FULL_PAGESIZE
USE_FULL_PAGESIZE	"0"
KEYWORD	USE_RANDOMIZED_REFERENCEFILE
USE_RANDOMIZED_REFERENCEFILE	"0"
KEYWORD	ZEBRA_RULER_MODE
ZEBRA_RULER_MODE	1
MANUFACTURER	"EFI"
KEYWORD	UV_CUT_MODE
UV_CUT_MODE	0
NUMBER_OF_FIELDS	44
BEGIN_DATA_FORMAT
SAMPLE_ID	CMYK_C	CMYK_M	CMYK_Y	CMYK_K	XYZ_X	XYZ_Y	XYZ_Z	SPECTRAL_380	SPECTRAL_390	SPECTRAL_400	SPECTRAL_410	SPECTRAL_420	SPECTRAL_430	SPECTRAL_440	SPECTRAL_450	SPECTRAL_460	SPECTRAL_470	SPECTRAL_480	SPECTRAL_490	SPECTRAL_500	SPECTRAL_510	SPECTRAL_520	SPECTRAL_530	SPECTRAL_540	SPECTRAL_550	SPECTRAL_560	SPECTRAL_570	SPECTRAL_580	SPECTRAL_590	SPECTRAL_600	SPECTRAL_610	SPECTRAL_620	SPECTRAL_630	SPECTRAL_640	SPECTRAL_650	SPECTRAL_660	SPECTRAL_670	SPECTRAL_680	SPECTRAL_690	SPECTRAL_700	SPECTRAL_710	SPECTRAL_720	SPECTRAL_730
END_DATA_FORMAT
BEGIN_DATA
1	100	0	0	0	27.55703	35.35681	62.63501	0.5560773	0.3488018	0.3439135	0.4312932	0.5739717	0.6792933	0.7589207	0.8029851	0.8152255	0.8124618	0.7968949	0.7699715	0.7322547	0.6794873	0.607826	0.5210876	0.4288903	0.3403041	0.2647484	0.2159544	0.1893406	0.1758612	0.1667354	0.161888	0.162576	0.1654152	0.1708381	0.1813118	0.1943194	0.2010556	0.198523	0.1911836	0.1808546	0.1746131	0.1823158	0.2081302
2	98.0464	0	0	0	28.78672	36.74912	63.2582	0.578963	0.3083925	0.3461855	0.436946	0.5837083	0.6907311	0.7677119	0.8092184	0.8207778	0.8184382	0.803697	0.7779219	0.7417296	0.6909229	0.6217601	0.5369743	0.4457788	0.3569859	0.2804437	0.2304938	0.2029887	0.1889301	0.1793179	0.1742773	0.1749716	0.177916	0.1837973	0.1947553	0.208376	0.2155584	0.2128489	0.2052379	0.1945318	0.1876798	0.1954746	0.222014
3	94.89621	0	0	0	30.38301	38.65768	64.19479	0.5219675	0.2923093	0.3456638	0.4507719	0.6021069	0.7082498	0.7804251	0.818732	0.8294576	0.8268278	0.8126816	0.7886979	0.755419	0.7078769	0.6422497	0.5604596	0.4707237	0.3813204	0.302476	0.2500806	0.2206035	0.2053194	0.1946439	0.1888243	0.1895228	0.1928166	0.1989654	0.2110228	0.2260547	0.2338107	0.23107	0.2228327	0.2107709	0.2028982	0.2108274	0.2396574
4	90.20757	0	0	0	32.91757	41.52511	65.43035	0.4872879	0.3254171	0.3403653	0.4647821	0.6236605	0.7300065	0.797065	0.8311761	0.8408691	0.8384832	0.8258815	0.804339	0.774095	0.730685	0.6700897	0.5927473	0.5054788	0.4161547	0.3353339	0.2805843	0.2491798	0.2324866	0.2207837	0.2142579	0.2148449	0.2183783	0.2251483	0.2383864	0.2549335	0.2636585	0.260611	0.2514845	0.2382328	0.2290733	0.2372308	0.268512
5	85.10379	0	0	0	35.918	44.65396	66.42923	0.4276924	0.2878764	0.341642	0.471482	0.6429472	0.749308	0.8108307	0.841171	0.8498859	0.8470912	0.835585	0.8163964	0.7891058	0.7496537	0.694247	0.6223748	0.5396665	0.4528392	0.3725299	0.316827	0.2840463	0.2664217	0.2538256	0.2467958	0.2476324	0.2517394	0.259461	0.2738034	0.2917563	0.3012562	0.2982574	0.2886227	0.2743567	0.2642522	0.2725691	0.3056579
6	80	0	0	0	38.37303	47.24674	67.14038	0.4053533	0.2904593	0.352178	0.4833909	0.6564997	0.7634408	0.820398	0.8475173	0.8555171	0.8531269	0.8428447	0.8250102	0.8002869	0.7645476	0.7142617	0.64735	0.5687531	0.48424	0.4038698	0.3470011	0.3127731	0.2941867	0.2807986	0.2732724	0.2742014	0.2788081	0.2873622	0.3031534	0.3226466	0.3330286	0.3299958	0.3198008	0.3042234	0.2929712	0.3016846	0.3368173
7	74.89621	0	0	0	41.52577	50.26061	67.68949	0.3533243	0.2865267	0.3620218	0.4879056	0.6685899	0.7756293	0.8285	0.8519785	0.8594957	0.8571258	0.8475223	0.8315383	0.8091522	0.7766635	0.7311763	0.670102	0.5972903	0.5175472	0.440131	0.3846371	0.3506155	0.3318525	0.3182334	0.3108219	0.3120688	0.3172799	0.3266163	0.3431171	0.3633962	0.3739397	0.3711486	0.3606462	0.3447481	0.3328379	0.3414286	0.3771714
8	70.20757	0	0	0	43.72646	52.45371	68.25017	0.4196526	0.3170339	0.3661817	0.5005168	0.6803378	0.7859364	0.8357813	0.8574468	0.8642102	0.8617486	0.8527783	0.8379893	0.8174359	0.7874181	0.7454618	0.6886767	0.6198384	0.542938	0.4667215	0.4111281	0.3764378	0.3571332	0.3430651	0.335388	0.3371194	0.343088	0.3532673	0.370999	0.3924738	0.4037872	0.4009813	0.3903747	0.3736413	0.36101	0.3698858	0.4070708
9	65.10379	0	0	0	47.05127	55.54602	68.81224	0.3998297	0.2939149	0.3618201	0.5065441	0.693228	0.7976255	0.8432813	0.8622162	0.8686905	0.8664454	0.8582489	0.844753	0.8261034	0.7991173	0.7616964	0.710319	0.6473348	0.5757861	0.5035079	0.4500797	0.41612	0.3969397	0.3831302	0.3757935	0.3780244	0.384708	0.3959409	0.4143926	0.4363427	0.4479118	0.4453045	0.4346348	0.4179227	0.4050947	0.4138937	0.4511913
10	61.17216	0	0	0	49.07887	57.51036	69.12735	0.4037124	0.2604683	0.3602592	0.5109055	0.6999276	0.8039203	0.8474956	0.8648547	0.8709454	0.8688729	0.8612569	0.8490966	0.8318359	0.8071092	0.7727967	0.7253257	0.6663978	0.5979688	0.527502	0.4746999	0.4405093	0.421116	0.4069306	0.3994548	0.4021049	0.4093928	0.4212739	0.440601	0.4633845	0.4754622	0.472911	0.4619	0.4446201	0.4312957	0.4404601	0.4789882
11	56.06838	0	0	0	51.62979	59.83577	69.34779	0.33824	0.2458743	0.3606552	0.5136043	0.7044759	0.8092113	0.8501126	0.8661146	0.872215	0.87041	0.8636518	0.8522257	0.8365231	0.8140627	0.7831879	0.7401422	0.6861711	0.6226082	0.5557027	0.5048752	0.4713029	0.452086	0.4380482	0.4310882	0.4343612	0.442423	0.455248	0.4753657	0.4986567	0.5109845	0.5084577	0.4976428	0.4802277	0.4668484	0.4758134	0.5141717
12	52.16117	0	0	0	53.78821	61.75491	69.6904	0.3864029	0.3007027	0.3681286	0.5178071	0.7100945	0.8154745	0.8548897	0.8694005	0.875397	0.8733469	0.8666533	0.8559712	0.8412749	0.820088	0.7916111	0.7519717	0.7017418	0.6419839	0.5781946	0.5294855	0.4969582	0.4780465	0.4643381	0.4577764	0.461646	0.470552	0.4842243	0.5050073	0.5287881	0.5413927	0.5391315	0.528441	0.5113123	0.4979612	0.5069696	0.5450873
13	47.83883	0	0	0	56.13933	63.79172	69.86282	0.3176713	0.2768203	0.3776302	0.5252963	0.7163894	0.8196772	0.8574235	0.8703525	0.8758217	0.8740891	0.8679297	0.8578172	0.8441264	0.8247252	0.7989845	0.7629404	0.7173179	0.6621855	0.6025168	0.5565182	0.5251462	0.5067905	0.4936214	0.4876683	0.4923353	0.5022364	0.5169315	0.5383427	0.5623667	0.575032	0.5732716	0.5630083	0.5460731	0.5331112	0.5421597	0.5795339
14	43.93162	0	0	0	58.10133	65.46237	70.15887	0.3572518	0.2716393	0.3787106	0.5258077	0.7195308	0.8245735	0.8613203	0.8735611	0.8788807	0.8771517	0.8711081	0.8615184	0.8484805	0.8299566	0.8058768	0.7719275	0.7289662	0.6772351	0.621098	0.5779362	0.5480834	0.530764	0.5183218	0.5131477	0.518524	0.5290467	0.544304	0.5657181	0.589397	0.6018991	0.6003144	0.590718	0.57451	0.5619355	0.5706209	0.6065704
15	40	0	0	0	59.44262	66.56833	69.92914	0.3135376	0.287418	0.3799903	0.5248643	0.7168598	0.8225117	0.8583433	0.8699082	0.8753122	0.8739429	0.8684185	0.8594354	0.8470672	0.8296692	0.8074692	0.7760704	0.7362453	0.6878659	0.6347319	0.5937973	0.5652046	0.5484509	0.5364171	0.5317367	0.5373443	0.548189	0.5636366	0.5848767	0.6080944	0.6203508	0.6189734	0.6094348	0.5938134	0.5816581	0.5901105	0.6247584
16	36.06838	0	0	0	60.71417	67.50711	69.76428	0.4123456	0.319283	0.3731495	0.5240665	0.7154536	0.8220117	0.8566612	0.8677133	0.8727827	0.8710396	0.8657584	0.856961	0.8447022	0.8280434	0.807084	0.777783	0.7407758	0.6954521	0.6456854	0.6074675	0.5805398	0.56473	0.5535852	0.5497278	0.5562027	0.5677438	0.5839936	0.6053631	0.6282117	0.6403497	0.6393405	0.6306317	0.615946	0.604522	0.6124882	0.6453269
17	32.16117	0	0	0	62.1624	68.66404	69.64118	0.4193336	0.3573324	0.3848768	0.52191	0.7143502	0.8213996	0.8554229	0.8657002	0.8705456	0.8689619	0.8638161	0.8552026	0.8436626	0.8280897	0.808846	0.7819574	0.7477843	0.7057424	0.6592919	0.6238509	0.5983284	0.5833002	0.5729206	0.5696368	0.5766641	0.5888181	0.6055654	0.6267869	0.6492889	0.6611834	0.6603602	0.652006	0.6379466	0.6270331	0.6348217	0.6661844
18	27.83883	0	0	0	64.03107	70.21221	69.91313	0.4548545	0.3211872	0.3760755	0.524725	0.7205145	0.826013	0.8589423	0.8684716	0.8732169	0.8716413	0.8665843	0.8584429	0.8472897	0.8323491	0.8145473	0.7895132	0.7579642	0.719268	0.6763265	0.6436424	0.6198901	0.605881	0.5964677	0.5942541	0.6020746	0.6150532	0.6324879	0.6539299	0.6762348	0.6877642	0.6873508	0.6798435	0.666734	0.656522	0.6641086	0.6937256
19	23.93162	0	0	0	66.22557	72.07943	70.3379	0.4038153	0.3398784	0.3895524	0.5321394	0.7289085	0.8332126	0.8638774	0.8728475	0.8772166	0.8759194	0.871162	0.8633943	0.8530154	0.8391544	0.822687	0.7995948	0.7708692	0.7357391	0.6967257	0.6673136	0.6454404	0.6327205	0.6240643	0.6225588	0.6310666	0.6448207	0.6628485	0.6841915	0.7057212	0.7170178	0.7170054	0.7101123	0.6981102	0.6886892	0.6959112	0.7237582
20	20	0	0	0	68.51664	73.9757	70.83683	0.4293035	0.3251655	0.3886752	0.5343924	0.7358772	0.8405902	0.8703146	0.878971	0.8831666	0.8812513	0.8762924	0.8686675	0.8588285	0.8456639	0.8303194	0.8092556	0.7832364	0.7518051	0.7168716	0.6911925	0.6715525	0.6600002	0.652576	0.6523112	0.6619297	0.6767938	0.695765	0.7172993	0.7383627	0.7493107	0.7498429	0.7438754	0.7331013	0.7246411	0.7314876	0.7571827
21	16.87424	0	0	0	69.84149	75.01806	70.8574	0.4200706	0.33997	0.383678	0.5355909	0.7368802	0.8416786	0.8709204	0.8789481	0.8826719	0.8810703	0.8762416	0.8689076	0.8593867	0.846663	0.8324221	0.8128895	0.7890328	0.7603837	0.7284164	0.7053249	0.6873608	0.6767528	0.6700832	0.6706185	0.6807055	0.6960366	0.7156013	0.7370172	0.7576758	0.7684788	0.7692608	0.7638975	0.754003	0.7464293	0.7529134	0.7768013
22	14.89621	0	0	0	70.98626	75.94288	71.05245	0.3869495	0.335702	0.3829673	0.5400093	0.7414682	0.8458622	0.8733716	0.8808963	0.8844576	0.8827786	0.8779716	0.8709583	0.8616205	0.8493888	0.8357174	0.8170473	0.7945729	0.7678466	0.7381951	0.717123	0.7005155	0.6907387	0.6848442	0.685881	0.6966099	0.7123972	0.7322103	0.7531857	0.7732641	0.7837577	0.7847442	0.7798891	0.7710181	0.7640567	0.7702743	0.7925539
23	12.16117	0	0	0	72.37383	77.03742	71.08816	0.3918792	0.3214295	0.3935239	0.5428931	0.7440835	0.8464568	0.8733025	0.8809255	0.8844956	0.8827306	0.8782604	0.8715546	0.8625591	0.8510432	0.8383737	0.8212175	0.8007339	0.7765211	0.7500113	0.7316416	0.7167634	0.7079815	0.7032069	0.7053018	0.7166129	0.7329686	0.7531424	0.7739947	0.7931925	0.8030949	0.8045284	0.8005223	0.7925392	0.7863708	0.7922592	0.8123176
24	10.20757	0	0	0	73.38496	77.80248	71.10553	0.4235241	0.3482636	0.3899627	0.5437721	0.7443643	0.8468386	0.8739631	0.8807963	0.88434	0.8828161	0.8782817	0.871695	0.8629256	0.8515337	0.8394846	0.823443	0.8044052	0.782194	0.7580597	0.7419888	0.7285219	0.7207692	0.7167597	0.7195852	0.7314168	0.7483009	0.7689164	0.7893811	0.8081339	0.817829	0.8194974	0.8160349	0.8090399	0.8039613	0.8092045	0.827595
25	7.838828	0	0	0	74.88708	78.96322	71.28382	0.4370351	0.348728	0.3915326	0.5443344	0.746972	0.8498276	0.8763387	0.8829027	0.8863469	0.8844826	0.8799635	0.8735169	0.8649576	0.8541116	0.8427581	0.827668	0.8104391	0.7908579	0.7698179	0.7567871	0.7455284	0.7390238	0.7362288	0.7404259	0.7531508	0.7709512	0.7921793	0.8123298	0.8301344	0.8392982	0.8413935	0.8388821	0.8333144	0.8292157	0.8338772	0.8493733
26	5.885226	0	0	0	76.17343	79.9179	71.28851	0.430359	0.3296164	0.395472	0.5418907	0.7443336	0.8501415	0.8763552	0.8830281	0.8865225	0.8845657	0.8802229	0.8737387	0.8653281	0.8548244	0.8440881	0.8301734	0.8146768	0.7973754	0.7794375	0.769388	0.7602487	0.7552157	0.7536311	0.7588293	0.7724891	0.7911593	0.8129561	0.8327825	0.8496893	0.8583702	0.8608787	0.8593274	0.8553498	0.8523519	0.8564798	0.8690611
27	3.931624	0	0	0	77.01304	80.48742	71.08257	0.3382216	0.3261702	0.3827311	0.535978	0.7413621	0.847814	0.8741713	0.8801152	0.8837957	0.8822653	0.878107	0.871708	0.8635269	0.853246	0.8431287	0.8301345	0.8160925	0.8007342	0.7852178	0.7776718	0.7700951	0.7662053	0.7657444	0.7719905	0.7863405	0.805466	0.8275495	0.8469179	0.8629607	0.8712435	0.8740253	0.8731128	0.8702244	0.8681864	0.8715644	0.8820115
28	3.125763	0	0	0	77.60772	80.99103	71.21136	0.3594046	0.3310552	0.3850201	0.5388156	0.743004	0.849315	0.8757772	0.8817534	0.8852203	0.8836837	0.8794144	0.8730739	0.8650839	0.8551322	0.8453927	0.8329868	0.819494	0.804952	0.7905231	0.7839543	0.7770801	0.7735251	0.7734429	0.7800679	0.7944051	0.813508	0.8353288	0.8543632	0.8698844	0.8779319	0.8807853	0.8801008	0.8777304	0.8761564	0.8794205	0.8887495
29	1.953602	0	0	0	78.25767	81.45458	71.11339	0.3259065	0.3162033	0.3825895	0.5373949	0.7399467	0.8474858	0.8744484	0.880535	0.884302	0.8825808	0.8785917	0.8725441	0.8645573	0.8546946	0.8454531	0.833652	0.821107	0.8079926	0.7951663	0.790219	0.7845901	0.7818053	0.7824599	0.7897872	0.8046885	0.8243501	0.8466515	0.865458	0.8804399	0.888222	0.8913749	0.8912939	0.8896811	0.8889025	0.8919533	0.8996326
30	0	0	0	0	79.06586	81.96719	70.79727	0.4432018	0.3535649	0.3906722	0.5386688	0.7407712	0.8460316	0.8708066	0.8760542	0.8791437	0.8775148	0.8734654	0.8677386	0.8603203	0.8511218	0.8428836	0.8323138	0.821707	0.8109077	0.8009878	0.7987985	0.7951086	0.7934991	0.7952417	0.8032842	0.8183736	0.8378249	0.8594436	0.8767275	0.8899224	0.896622	0.899677	0.9002718	0.9003557	0.9007385	0.9026117	0.9071922
31	0	100	0	0	55.39412	39.26766	41.41828	0.3130758	0.2755566	0.3148468	0.4407017	0.5814109	0.6198915	0.5959965	0.5533558	0.5109627	0.4585116	0.3953176	0.3488636	0.3147941	0.2654527	0.2174664	0.2071902	0.2168344	0.2069794	0.21195	0.2854955	0.4273004	0.5868122	0.7001125	0.7603478	0.7970712	0.8257825	0.850857	0.8687511	0.8816456	0.8878947	0.8910961	0.8919286	0.8923337	0.8928567	0.8949658	0.8998691
32	0	98.0464	0	0	56.27756	40.4704	42.64833	0.3908703	0.287894	0.3175592	0.4443371	0.5855749	0.6313697	0.6102662	0.5689483	0.5277067	0.4756725	0.4125552	0.3657006	0.3311163	0.2809177	0.2319322	0.2212302	0.2309174	0.2206549	0.2253004	0.2997045	0.4416663	0.598219	0.7069198	0.7640488	0.7995015	0.8277684	0.8527774	0.8710746	0.8842425	0.8906806	0.8940074	0.8949572	0.894905	0.8952299	0.8976085	0.9028002
33	0	94.89621	0	0	57.37846	41.81949	44.35549	0.3460869	0.2871343	0.3389785	0.4576313	0.6026742	0.6500804	0.6306817	0.5905898	0.5499672	0.4980857	0.4341667	0.3860967	0.3503312	0.2980582	0.2464982	0.2348335	0.2449742	0.2339499	0.2385781	0.3162777	0.4610218	0.6145496	0.7166269	0.7691783	0.8022739	0.8295438	0.8541002	0.8720472	0.8849955	0.8914192	0.8945763	0.8953276	0.895364	0.8954391	0.8977775	0.9029093
34	0	90.20757	0	0	59.3209	44.51147	47.13365	0.2998258	0.2688798	0.3264221	0.4717615	0.6281887	0.6783952	0.6617805	0.6246802	0.5859481	0.5354317	0.4725213	0.4244247	0.3878168	0.333557	0.279124	0.2662668	0.2766657	0.2646349	0.2690661	0.3493872	0.49358	0.63864	0.7303095	0.7767664	0.807386	0.8335511	0.8576792	0.8753946	0.8882328	0.8944045	0.8973537	0.8980764	0.8980962	0.8986237	0.9007714	0.9057468
35	0	85.10379	0	0	61.09759	47.03877	49.61638	0.1834259	0.2377278	0.3141093	0.4730902	0.6423565	0.7013783	0.689391	0.6551757	0.6192038	0.5705132	0.5086576	0.4605411	0.4232596	0.3673422	0.3105162	0.2964817	0.3070989	0.2941277	0.2981145	0.3802857	0.5228392	0.6592527	0.7416317	0.7832345	0.8120549	0.8379183	0.8622578	0.880536	0.8938161	0.9002866	0.9035893	0.9044051	0.9045173	0.9046397	0.9070401	0.9122758
36	0	80	0	0	63.06485	50.0346	52.33667	0.2050168	0.2294502	0.3316401	0.489422	0.6613783	0.7257988	0.7174091	0.6872956	0.6543014	0.6085474	0.5491846	0.5020269	0.4648066	0.4080724	0.3495562	0.3345487	0.3450388	0.3312174	0.3347467	0.4173096	0.5549949	0.6802175	0.7527659	0.7895533	0.8162774	0.841382	0.865666	0.8840514	0.8975758	0.9043683	0.9076958	0.9084206	0.908327	0.9084341	0.9110267	0.9164657
37	0	74.89621	0	0	64.57607	52.63096	54.43795	0.3028419	0.272347	0.3443001	0.4939988	0.6732057	0.742477	0.7377189	0.7109659	0.6813368	0.6388688	0.5828368	0.5373405	0.5007973	0.4444695	0.385787	0.3702244	0.3803273	0.3659548	0.3687911	0.4498383	0.5806735	0.6947713	0.7587744	0.7916072	0.8169445	0.8416135	0.8660559	0.8847046	0.8985128	0.905397	0.9089015	0.909892	0.9096617	0.9097505	0.912295	0.9177144
38	0	70.20757	0	0	65.90796	54.86381	56.14114	0.2217272	0.2580165	0.345728	0.5018952	0.6831506	0.7558407	0.753684	0.7299979	0.7032266	0.6635575	0.6103339	0.5667776	0.5309436	0.4751436	0.4162852	0.4003358	0.4102804	0.3953007	0.3978638	0.4778146	0.6030583	0.7081094	0.7653323	0.7949931	0.8190244	0.8427995	0.8667333	0.885103	0.8986799	0.9054625	0.9089091	0.9096257	0.9092776	0.9094667	0.9121842	0.9175599
39	0	65.10379	0	0	67.35087	57.4297	58.11526	0.3119829	0.2972016	0.3407762	0.5085241	0.6935208	0.7711108	0.7727374	0.752294	0.7282739	0.6916891	0.6422567	0.6008613	0.5660969	0.511521	0.4533294	0.4369266	0.4460931	0.4307613	0.432427	0.5094534	0.6262599	0.7203608	0.7701368	0.7965916	0.8195378	0.8433877	0.8676993	0.8865495	0.9005904	0.9076959	0.9112592	0.9121338	0.9118838	0.9121742	0.9147364	0.9201303
40	0	61.17216	0	0	68.49762	59.59511	59.48053	0.1533119	0.2502902	0.3477407	0.5068356	0.6994417	0.7795891	0.7841468	0.7667713	0.7454394	0.7123562	0.6666858	0.6277218	0.5944549	0.5418255	0.4851804	0.4685014	0.4770141	0.4615096	0.4625505	0.5363321	0.6452765	0.73024	0.7742872	0.7983356	0.8200916	0.8432339	0.8669515	0.8853627	0.8991858	0.9060787	0.9096429	0.9104714	0.9101071	0.9102941	0.9127864	0.9183147
41	0	56.06838	0	0	70.04395	62.42881	61.32631	0.2663491	0.2991237	0.3601974	0.5151479	0.7081255	0.7925251	0.8001834	0.7859607	0.7684672	0.739239	0.6981608	0.6625006	0.6311787	0.5810214	0.5265443	0.5098716	0.5173455	0.5015792	0.5017843	0.5711365	0.669655	0.7430384	0.7800925	0.8011231	0.8216855	0.8442165	0.8676663	0.8859897	0.8997442	0.906616	0.9099653	0.9107733	0.9105986	0.9105731	0.9131179	0.9184566
42	0	52.16117	0	0	70.87963	64.33593	62.46491	0.2593859	0.2882691	0.366453	0.5187134	0.7097569	0.7977793	0.8091	0.797619	0.7826881	0.7566856	0.7194598	0.686575	0.657012	0.6094391	0.5572757	0.5405952	0.5469342	0.5310413	0.5303944	0.5948686	0.6837167	0.7477859	0.7796484	0.7988036	0.8188258	0.8412421	0.8648032	0.8834777	0.8974298	0.9044427	0.907932	0.9087101	0.9085618	0.9086972	0.9112285	0.9162182
43	0	47.83883	0	0	72.14765	66.70339	63.95368	0.3306457	0.3031964	0.3670453	0.5193151	0.7165585	0.8090451	0.8225592	0.8133281	0.8008527	0.7781122	0.7446888	0.7145352	0.6869481	0.6423128	0.5929895	0.5763953	0.5813262	0.5654238	0.5638354	0.622894	0.7019447	0.7570038	0.7840543	0.8012611	0.8203791	0.8426371	0.866248	0.8849573	0.8989728	0.9060378	0.9096049	0.91057	0.9105017	0.9105957	0.9130506	0.9181129
44	0	43.93162	0	0	72.99312	68.55832	64.86015	0.2862993	0.3159909	0.3692455	0.5236517	0.7217203	0.8139546	0.828709	0.8215267	0.8113546	0.7915289	0.7619214	0.7347435	0.7092608	0.6682095	0.622479	0.6062581	0.6101099	0.5945196	0.5920784	0.6454504	0.7150718	0.7624356	0.7854863	0.8010626	0.8194971	0.8410733	0.8640462	0.88236	0.8962196	0.9031211	0.9065412	0.9073714	0.9073413	0.9074535	0.9098737	0.9148837
45	0	40	0	0	73.20228	69.43052	65.08252	0.3025494	0.2933166	0.3591344	0.5241154	0.7216938	0.8133265	0.8285205	0.8224404	0.8134619	0.7951958	0.7682104	0.7431897	0.7194927	0.6811777	0.6381433	0.6225188	0.6255499	0.6104151	0.6075684	0.6570185	0.7206134	0.7631918	0.7838221	0.7980978	0.8154073	0.835923	0.857785	0.8749421	0.8877592	0.8941037	0.8971446	0.8976405	0.8977975	0.8980383	0.8997726	0.9044325
46	0	36.06838	0	0	74.39691	71.3595	66.30881	0.2728476	0.2900212	0.3824688	0.54962	0.7471448	0.8291567	0.8404908	0.8345387	0.8254579	0.8088248	0.7846169	0.7617266	0.740177	0.7048411	0.6652967	0.6501427	0.6521752	0.6379108	0.6347601	0.6796623	0.736157	0.7733511	0.7912294	0.8041793	0.8203389	0.8397941	0.8605762	0.8767648	0.8888085	0.8945326	0.8970003	0.8975679	0.8980197	0.8986217	0.9000519	0.9040282
47	0	32.16117	0	0	74.91972	72.62986	66.87185	0.2310586	0.2580324	0.3705365	0.5436846	0.743274	0.8300478	0.8439825	0.8400094	0.8329482	0.8183783	0.7967322	0.7758924	0.7560415	0.7235581	0.6867747	0.6719632	0.6726503	0.6584709	0.6545587	0.6943756	0.7433956	0.7752082	0.7906741	0.8028873	0.8190915	0.8387587	0.859898	0.8765478	0.8890528	0.8950139	0.8978223	0.8984684	0.8989913	0.8994065	0.9009801	0.905261
48	0	27.83883	0	0	75.68405	74.10091	67.53262	0.2290675	0.295199	0.381466	0.550059	0.7476018	0.8334595	0.8487236	0.8459677	0.8404099	0.8278354	0.8087473	0.7901317	0.7719063	0.7422808	0.7092245	0.6949309	0.6946188	0.6810138	0.676533	0.7115165	0.7537559	0.7806875	0.7939521	0.8052558	0.8207916	0.8400301	0.8607721	0.8770964	0.8893105	0.8951117	0.8977677	0.8983464	0.8986259	0.8992625	0.9009589	0.9051709
49	0	23.93162	0	0	76.23136	75.30072	68.0568	0.228626	0.2538428	0.3758162	0.5394916	0.7403159	0.8334823	0.8522305	0.8514844	0.8479113	0.8371967	0.8202617	0.8034741	0.7866157	0.759571	0.7291772	0.7152525	0.7135214	0.6999083	0.6944942	0.7245967	0.7603022	0.7827821	0.7941999	0.8051134	0.8210469	0.840857	0.8625648	0.8796657	0.8928398	0.8992644	0.902451	0.902986	0.9030921	0.9034537	0.9057319	0.9103668
50	0	20	0	0	76.94042	76.69281	68.81929	0.2296913	0.2944219	0.3785276	0.5418608	0.7417197	0.8382943	0.8588159	0.8590733	0.8572151	0.8482653	0.8337641	0.8187232	0.8032276	0.7787046	0.751583	0.7379341	0.7347005	0.7212684	0.7150074	0.7398169	0.7685339	0.7864339	0.7958342	0.8063042	0.8223692	0.8425019	0.8646405	0.8824117	0.8958528	0.9026805	0.9060657	0.9067464	0.9066745	0.9069055	0.9096028	0.9144136
51	0	16.87424	0	0	77.67873	77.8958	69.59382	0.24806	0.2969396	0.3786682	0.5452169	0.7488869	0.8456979	0.866322	0.8676124	0.8665026	0.8584888	0.8452823	0.83145	0.8168224	0.7944611	0.7694498	0.7559846	0.7515106	0.7383542	0.7315677	0.752687	0.7767206	0.7914661	0.7996032	0.8096105	0.8256821	0.8461836	0.8687041	0.886839	0.9006684	0.9077957	0.9113025	0.9122196	0.9121053	0.9124117	0.9151039	0.9202491
52	0	14.89621	0	0	77.94193	78.50292	69.82801	0.2937688	0.3013361	0.3895894	0.5467523	0.7493486	0.846345	0.8677006	0.8695705	0.8690574	0.8617824	0.8499446	0.8372394	0.8236484	0.8028651	0.7797726	0.7664236	0.7612391	0.7482902	0.7411479	0.759549	0.7800837	0.7926414	0.7997499	0.8095427	0.8255719	0.846033	0.8686318	0.8868189	0.9006682	0.9077558	0.9113453	0.912058	0.9118172	0.9121425	0.9146681	0.9200321
53	0	12.16117	0	0	78.33253	79.34911	70.22745	0.3174006	0.2890309	0.3860057	0.5485657	0.7519788	0.8494246	0.8708509	0.8733222	0.8735341	0.8673087	0.8569976	0.8452765	0.8328236	0.8141844	0.7937554	0.7808744	0.7745811	0.7620216	0.7544382	0.7690328	0.7848952	0.7945367	0.8005345	0.809974	0.8257276	0.8459272	0.8682269	0.8862994	0.9000133	0.906987	0.9105318	0.9113507	0.9111513	0.9114835	0.9141232	0.9194948
54	0	10.20757	0	0	78.54289	79.88959	70.40027	0.2581079	0.2823107	0.3880729	0.5466032	0.7514702	0.8489243	0.8717653	0.8745875	0.8754049	0.8702486	0.86114	0.8505639	0.8389395	0.8217103	0.8031289	0.7906154	0.7836001	0.7713704	0.7632338	0.7749016	0.7873638	0.7950665	0.8003316	0.8094484	0.8253195	0.8455967	0.8681063	0.8862206	0.9000992	0.9072102	0.9106755	0.9115233	0.911299	0.9117731	0.9144076	0.9196678
