Measurements/EPSON_P900_Series/HP_Premeium_Plain/QualityControl_WithXYZData.it8
CGATS.17
BORDER_PATCHES	1
KEYWORD	CHART_H
CHART_H	"2091"
KEYWORD	CHART_W
CHART_W	"2663"
DEVICE	15
KEYWORD	DEVICEMODE
DEVICEMODE	"0"
KEYWORD	GAP_SIZE
GAP_SIZE	"1800"
KEYWORD	HARDMARGIN_BOTTOM
HARDMARGIN_BOTTOM	"0"
KEYWORD	HARDMARGIN_LEFT
HARDMARGIN_LEFT	"0"
KEYWORD	HARDMARGIN_RIGHT
HARDMARGIN_RIGHT	"0"
KEYWORD	HARDMARGIN_TOP
HARDMARGIN_TOP	"0"
KEYWORD	ILLUMINATION_CONDITION
ILLUMINATION_CONDITION	"0"
KEYWORD	ISIS_XL_FORMAT
ISIS_XL_FORMAT	"0"
KEYWORD	LOWRES
LOWRES	"0"
KEYWORD	MEASURINGTYPE
MEASURINGTYPE	"0"
NUMBER_OF_COLS	18
NUMBER_OF_SETS	180
NUMBER_OF_STRIPS	10
KEYWORD	ORIGINAL_NUMBER_OF_SETS
ORIGINAL_NUMBER_OF_SETS	180
KEYWORD	PAGESIZE_HEIGHT
PAGESIZE_HEIGHT	"9493"
KEYWORD	PAGESIZE_WIDTH
PAGESIZE_WIDTH	"414"
KEYWORD	PAPERSIZE_HEIGHT
PAPERSIZE_HEIGHT	"9493"
KEYWORD	PAPERSIZE_WIDTH
PAPERSIZE_WIDTH	"414"
KEYWORD	PATCHES_PER_PAGE
PATCHES_PER_PAGE	180
KEYWORD	PATCH_SIZE_X
PATCH_SIZE_X	"9600"
KEYWORD	PATCH_SIZE_Y
PATCH_SIZE_Y	"9600"
KEYWORD	POSITIONING
POSITIONING	"1"
KEYWORD	PRINTERID
PRINTERID	"3239"
PROCESSCOLOR_ID	"4 1 Cyan"
PROCESSCOLOR_ID	"4 2 Magenta"
PROCESSCOLOR_ID	"4 3 Yellow"
PROCESSCOLOR_ID	"4 4 Black"
KEYWORD	QUALITY_MODE
QUALITY_MODE	"1"
KEYWORD	RANDOMIZED_PATCHES
RANDOMIZED_PATCHES	"0"
KEYWORD	REPEAT_PATCH_MEASURE_COUNT
REPEAT_PATCH_MEASURE_COUNT	"1"
KEYWORD	USE_FULL_PAGESIZE
USE_FULL_PAGESIZE	"0"
KEYWORD	USE_RANDOMIZED_REFERENCEFILE
USE_RANDOMIZED_REFERENCEFILE	"0"
KEYWORD	ZEBRA_RULER_MODE
ZEBRA_RULER_MODE	1
MANUFACTURER	"EFI"
KEYWORD	UV_CUT_MODE
UV_CUT_MODE	0
NUMBER_OF_FIELDS	44
BEGIN_DATA_FORMAT
SAMPLE_ID	CMYK_C	CMYK_M	CMYK_Y	CMYK_K	XYZ_X	XYZ_Y	XYZ_Z	SPECTRAL_380	SPECTRAL_390	SPECTRAL_400	SPECTRAL_410	SPECTRAL_420	SPECTRAL_430	SPECTRAL_440	SPECTRAL_450	SPECTRAL_460	SPECTRAL_470	SPECTRAL_480	SPECTRAL_490	SPECTRAL_500	SPECTRAL_510	SPECTRAL_520	SPECTRAL_530	SPECTRAL_540	SPECTRAL_550	SPECTRAL_560	SPECTRAL_570	SPECTRAL_580	SPECTRAL_590	SPECTRAL_600	SPECTRAL_610	SPECTRAL_620	SPECTRAL_630	SPECTRAL_640	SPECTRAL_650	SPECTRAL_660	SPECTRAL_670	SPECTRAL_680	SPECTRAL_690	SPECTRAL_700	SPECTRAL_710	SPECTRAL_720	SPECTRAL_730
END_DATA_FORMAT
BEGIN_DATA
1	0	0	0	0	79.70359	82.60425	71.35916	0.3115818	0.4201387	0.4144125	0.5581935	0.749909	0.8519355	0.8777866	0.8824205	0.8857073	0.8840427	0.8796802	0.8739899	0.8664048	0.857396	0.8488941	0.8386658	0.8274124	0.8171544	0.8072277	0.8052073	0.8017043	0.800348	0.8022729	0.8100307	0.8251754	0.8445662	0.8658226	0.8826406	0.8956804	0.9022977	0.9055754	0.9058015	0.905663	0.9056994	0.9081011	0.9128945
2	25	0	0	0	67.6334	73.20871	70.57426	0.3032738	0.3922735	0.3938564	0.5367514	0.7276517	0.8353848	0.8678653	0.8760391	0.8802833	0.8786862	0.8734484	0.8659234	0.8554716	0.8419625	0.8260527	0.8048676	0.7776112	0.7452816	0.7086003	0.6816247	0.661362	0.6495499	0.6418359	0.641149	0.6506779	0.6653845	0.6840189	0.7051921	0.7263621	0.737382	0.7375818	0.7309564	0.7197868	0.7109634	0.7181534	0.7443853
3	50	0	0	0	55.53015	63.17968	69.58228	0.3646635	0.4022765	0.3893628	0.5252953	0.7070851	0.8154513	0.8544906	0.8673984	0.8727439	0.8710821	0.8642983	0.854141	0.8398224	0.8203121	0.7941957	0.758129	0.711359	0.6558831	0.5955256	0.5492886	0.5179227	0.4998703	0.486898	0.4809665	0.4857655	0.495629	0.5099815	0.5310413	0.5548994	0.5673816	0.565361	0.5547327	0.5380014	0.5249585	0.5341629	0.5714191
4	75	0	0	0	42.06728	50.81942	67.93389	0.3437434	0.3853454	0.3602369	0.5020099	0.6722576	0.779195	0.8320187	0.854673	0.8616405	0.8593104	0.8494517	0.833936	0.8118348	0.780283	0.7355953	0.6759188	0.6034464	0.5242628	0.4465649	0.3907284	0.3565043	0.3376377	0.323998	0.316405	0.3179106	0.32329	0.3329998	0.3499249	0.3705857	0.3814184	0.3783657	0.367492	0.3511433	0.3389388	0.3481981	0.3847965
5	100	0	0	0	28.88072	36.9717	64.15082	0.5534273	0.4564985	0.3779621	0.4625455	0.6035352	0.7054292	0.779887	0.8202251	0.830103	0.826447	0.8108074	0.7853396	0.7494191	0.6990548	0.6290872	0.5433159	0.4500697	0.3598675	0.2815793	0.2303812	0.2020752	0.187622	0.1776351	0.172191	0.1727348	0.1757549	0.181572	0.1928804	0.207024	0.2143082	0.2115785	0.2035889	0.1923319	0.1850334	0.1931026	0.2209183
6	0	25	0	0	76.56779	75.47152	68.63698	0.3249963	0.4126209	0.4005246	0.5513878	0.7413522	0.8388515	0.8601205	0.8594757	0.8561192	0.8448747	0.8266752	0.8087784	0.7908222	0.7625496	0.7303993	0.7157933	0.713261	0.6992356	0.6932247	0.7244368	0.761701	0.7851779	0.7970223	0.8083673	0.8254579	0.846772	0.8698448	0.8882322	0.902307	0.9095285	0.9133358	0.913924	0.9137357	0.9136823	0.9164598	0.9216918
7	25	25	0	0	64.1036	65.66181	67.61222	0.3217629	0.3880455	0.3888217	0.5395598	0.7251405	0.8246505	0.8507092	0.8511481	0.8468102	0.8339956	0.8125548	0.7911146	0.7695022	0.7353428	0.6949654	0.6718603	0.6578397	0.6275516	0.600839	0.6071336	0.6224583	0.6305477	0.6302703	0.6316285	0.6420252	0.6575027	0.6765997	0.698719	0.7210701	0.732622	0.732673	0.7256254	0.7135912	0.7041343	0.7116301	0.7401015
8	50	25	0	0	49.66684	53.49154	65.26594	0.3639973	0.3796657	0.3791766	0.5199686	0.6922631	0.7906896	0.8231671	0.8283776	0.8237649	0.8084404	0.7825111	0.7564788	0.7294866	0.6875691	0.6368136	0.6019396	0.5733537	0.5255834	0.4793372	0.4629388	0.4584472	0.4539367	0.4454645	0.4403187	0.444958	0.4538484	0.4673217	0.4877561	0.5113575	0.5238391	0.521504	0.5103618	0.4930828	0.4795782	0.4893794	0.5283321
9	75	25	0	0	37.42864	42.6311	62.61551	0.3231743	0.3728138	0.3515651	0.4833401	0.6451395	0.7433116	0.7887236	0.8028464	0.7992376	0.7830914	0.7540539	0.72341	0.6906414	0.6411415	0.5801616	0.53109	0.4853558	0.4230435	0.3639923	0.3322977	0.3158167	0.3050462	0.294245	0.2875045	0.2890016	0.2941758	0.3031875	0.319355	0.3392911	0.3497863	0.3466133	0.3359351	0.3199647	0.3084005	0.3175243	0.3535113
10	100	25	0	0	23.19503	29.78106	59.92737	0.5920024	0.4790036	0.3537247	0.4174394	0.5353355	0.6316307	0.7219478	0.776783	0.7901643	0.786264	0.7656538	0.7317647	0.6853506	0.6226174	0.5401062	0.4467116	0.3532339	0.2694785	0.2023654	0.161873	0.1415224	0.1319717	0.1259383	0.123142	0.124421	0.1271926	0.1318066	0.1397819	0.1494812	0.1541357	0.1519257	0.1465312	0.139857	0.1370762	0.1447491	0.1653394
11	0	50	0	0	72.19376	66.51588	63.97899	0.2032414	0.3493416	0.3833733	0.5341448	0.7185984	0.809913	0.8237472	0.8140401	0.8012376	0.77772	0.7432011	0.7124562	0.6843815	0.6392025	0.5886977	0.5718961	0.5766734	0.5609565	0.5592723	0.6199281	0.7014727	0.75868	0.7866021	0.8038265	0.8231382	0.8454755	0.8689207	0.887243	0.9012726	0.9084088	0.9119794	0.9124122	0.9122588	0.9121035	0.9148501	0.9200561
12	25	50	0	0	59.05934	56.08258	61.73925	0.3064243	0.3663988	0.3733551	0.5182874	0.6951408	0.7839504	0.8006688	0.7915242	0.7764968	0.7497671	0.710511	0.6754402	0.6439513	0.5940846	0.5382518	0.5163658	0.5139788	0.4884374	0.4725618	0.5094299	0.5636758	0.5991926	0.6113968	0.6169695	0.6285107	0.6439528	0.6625035	0.6839763	0.705857	0.7171267	0.7170432	0.7098199	0.6975526	0.6877174	0.6955773	0.724223
13	50	50	0	0	45.1178	44.63733	58.65115	0.2870169	0.3481149	0.3491109	0.4912031	0.6573661	0.7450226	0.7671801	0.7601318	0.7429391	0.7121576	0.6674199	0.6279837	0.5924918	0.5381835	0.4776194	0.449542	0.4382202	0.4034536	0.3749316	0.3876701	0.413749	0.4285172	0.4285898	0.4264082	0.4317639	0.4408755	0.4540368	0.474002	0.4970995	0.509163	0.5068783	0.4957989	0.4787378	0.4655794	0.4750339	0.513007
14	75	50	0	0	32.28205	33.64378	55.33124	0.4635081	0.4356681	0.3599432	0.4639601	0.6088511	0.6930206	0.7267014	0.7263981	0.7088778	0.675294	0.6256442	0.5815541	0.5416001	0.4820168	0.4154473	0.3792391	0.3565343	0.3125432	0.2737937	0.2668673	0.2708769	0.2711039	0.2646762	0.2592659	0.2608827	0.265638	0.2741249	0.2896504	0.308948	0.3190158	0.315825	0.3052381	0.2895541	0.2782636	0.2872269	0.3222634
15	100	50	0	0	19.86455	23.77055	52.67856	0.5351031	0.4279429	0.306561	0.3555436	0.459863	0.5557535	0.6472231	0.6999148	0.7074603	0.692157	0.654905	0.6094617	0.5575975	0.4887854	0.4076354	0.3348888	0.2688937	0.2059487	0.1570811	0.1313075	0.1194387	0.1139824	0.1104827	0.1093564	0.1109727	0.1135958	0.1176923	0.1239678	0.1311696	0.1343874	0.1326269	0.1286365	0.1242444	0.1235854	0.130568	0.14714
16	0	75	0	0	65.14592	54.03368	55.36524	0.2513759	0.3526351	0.3504964	0.496863	0.6663747	0.7434772	0.7448957	0.7209247	0.6941455	0.6549226	0.6014504	0.5578429	0.5220039	0.4665677	0.4079251	0.3919895	0.4016468	0.3868729	0.3888592	0.4682164	0.5938157	0.7002149	0.7583851	0.7883472	0.8126934	0.8368844	0.8604509	0.8781849	0.8914878	0.8982327	0.9015491	0.9019745	0.9020367	0.9020506	0.9045221	0.9087066
17	25	75	0	0	52.89383	45.37014	53.23278	0.2518865	0.321205	0.3454998	0.4852163	0.6458374	0.7191372	0.7211311	0.6972734	0.6687353	0.6272122	0.571559	0.5265398	0.4899015	0.434109	0.3753888	0.3574234	0.3622615	0.3432821	0.3369663	0.3933552	0.4823904	0.5527768	0.5852866	0.5989196	0.6132402	0.6294209	0.6477431	0.6685678	0.6896921	0.7005288	0.7000486	0.6926788	0.680666	0.6709965	0.6782157	0.7057071
18	50	75	0	0	39.86502	35.83068	50.07575	0.3167695	0.3373319	0.3326614	0.4537749	0.5994014	0.6741897	0.6836486	0.6624615	0.6330831	0.5898707	0.5322308	0.4858177	0.4482417	0.3925909	0.3346866	0.3144742	0.3136348	0.2903046	0.2757432	0.3073426	0.3580563	0.3933717	0.4041728	0.4060599	0.4127656	0.4222485	0.4352095	0.4546143	0.4771034	0.4889486	0.4864914	0.4756673	0.4589299	0.4460812	0.4550765	0.4916512
19	75	75	0	0	29.30541	27.36851	46.79481	0.4549491	0.4007864	0.350349	0.4377458	0.5634019	0.6276136	0.6417753	0.6260483	0.5955634	0.5501899	0.4902009	0.4422804	0.4036756	0.3479154	0.2898996	0.2661455	0.2583956	0.2310997	0.2106385	0.2237256	0.2485434	0.2636204	0.2647665	0.2623385	0.2650204	0.2703098	0.2787945	0.2933374	0.3109373	0.3201015	0.3170698	0.307563	0.2936866	0.2836078	0.2917927	0.3236129
20	100	75	0	0	19.95793	20.9304	44.95121	0.4401802	0.3870215	0.3013882	0.358141	0.4537193	0.5328882	0.59049	0.6092806	0.5944546	0.5594308	0.5064892	0.4584488	0.4151666	0.3563378	0.2932316	0.2528207	0.2220878	0.1825668	0.1515627	0.1415668	0.1407305	0.1403864	0.1379058	0.1362625	0.1377503	0.1405688	0.1450766	0.1523329	0.1609897	0.1652041	0.1632026	0.1582477	0.1522508	0.1498222	0.1563745	0.1746068
21	0	100	0	0	56.22198	40.31669	42.48844	0.2581778	0.2667793	0.3226487	0.4503866	0.5813304	0.6289292	0.6091702	0.5672165	0.5256637	0.4735285	0.4101086	0.3634745	0.3290091	0.2792593	0.230622	0.2196738	0.2288639	0.2186949	0.2227792	0.296183	0.4379014	0.5959144	0.7064797	0.7648373	0.8013691	0.8307981	0.8566092	0.8753235	0.8892153	0.8961205	0.8997037	0.9004785	0.9005498	0.9007797	0.9035386	0.9086431
22	25	100	0	0	43.53808	32.67279	40.07311	0.1528129	0.2353119	0.3096981	0.4273833	0.5495574	0.5942464	0.5769105	0.5370181	0.4961356	0.4450417	0.3839665	0.3392765	0.3063934	0.2596233	0.2141633	0.2031403	0.2094671	0.1981087	0.1981466	0.2525128	0.353208	0.4568306	0.5204573	0.5493153	0.56934	0.5872005	0.6058919	0.6271412	0.6489769	0.6602856	0.6597909	0.6519245	0.6390187	0.6283564	0.6358654	0.6657933
23	50	100	0	0	32.40868	25.80735	38.23477	0.4524497	0.4085148	0.3384255	0.4092637	0.5163843	0.5591041	0.5488781	0.514892	0.4758635	0.4266335	0.3671421	0.3234798	0.2910773	0.245703	0.2014482	0.1886604	0.1907173	0.1765054	0.1710878	0.2057592	0.2676638	0.3252147	0.3552646	0.3663737	0.3758504	0.3859186	0.39846	0.41595	0.4357811	0.4461002	0.4440053	0.4346693	0.4204359	0.4096837	0.4178082	0.449516
24	75	100	0	0	24.99115	21.08595	36.42453	0.4610489	0.3680064	0.3164071	0.3798668	0.4750211	0.5207815	0.5208619	0.4937845	0.4574109	0.4106339	0.3534628	0.3111989	0.279504	0.2356579	0.192842	0.1779753	0.1752217	0.158512	0.1485562	0.1677602	0.2035853	0.2343845	0.2475888	0.2509232	0.2554548	0.2615977	0.2702676	0.2840487	0.3004606	0.3090346	0.3065426	0.2980057	0.2855228	0.2769998	0.2846732	0.3132983
25	100	100	0	0	19.55532	18.0309	36.58876	0.4221279	0.3554773	0.2853476	0.3427883	0.4339231	0.4885406	0.5104662	0.5003108	0.4706378	0.4274318	0.3722961	0.329427	0.2954382	0.2496128	0.2037704	0.1821477	0.1704503	0.1478948	0.1316677	0.136405	0.150395	0.1613016	0.1640758	0.1637831	0.1658181	0.1691237	0.1743509	0.1829294	0.1933596	0.1985982	0.1965566	0.1906567	0.183113	0.1789579	0.1856513	0.2057127
26	0	0	25	0	76.95688	81.77253	53.72924	0.2858025	0.3483009	0.3476169	0.4396821	0.5561835	0.6152669	0.6296852	0.6363773	0.6426063	0.6513526	0.6815212	0.7454316	0.8143088	0.8462141	0.8497305	0.8419586	0.8310733	0.8206792	0.8107591	0.8088416	0.8054059	0.804024	0.8056841	0.8132114	0.8285225	0.8490043	0.8714236	0.8894419	0.9033478	0.9105262	0.9140472	0.9146224	0.9144416	0.9142248	0.9173075	0.9228098
27	25	0	25	0	65.39848	72.83761	53.6642	0.2319671	0.2970714	0.3394343	0.4361631	0.5536796	0.6127707	0.6296764	0.6378634	0.644373	0.6527104	0.6820037	0.7437806	0.8082685	0.8342652	0.8301713	0.811638	0.7852398	0.7534727	0.7173668	0.6904787	0.6701359	0.6582499	0.6502327	0.6491066	0.6587515	0.6739879	0.6933111	0.715308	0.737263	0.7486694	0.7490048	0.7423326	0.7309149	0.7219137	0.729578	0.7573121
28	50	0	25	0	50.83273	60.66392	53.47651	0.3192371	0.3468881	0.3406598	0.4270467	0.5439067	0.6066273	0.6290968	0.6403176	0.6474529	0.6551291	0.6815405	0.7370402	0.7927804	0.8091225	0.791635	0.7544816	0.7039412	0.6438198	0.578702	0.5285822	0.4949746	0.4756952	0.4616033	0.4545711	0.4585643	0.4677789	0.4819562	0.5034813	0.5282414	0.5412686	0.5390447	0.5276336	0.509729	0.4958521	0.5060277	0.5462631
29	75	0	25	0	37.21084	47.85719	52.75463	0.3560146	0.3766629	0.3357975	0.4161801	0.5249355	0.5899652	0.6217247	0.6388017	0.6468687	0.6535999	0.6758548	0.7224362	0.7644807	0.7643997	0.7264217	0.6649716	0.588431	0.5048171	0.4232857	0.3649071	0.3293701	0.3098706	0.295606	0.2874385	0.2884416	0.2932679	0.3022592	0.3190423	0.3398381	0.3507926	0.3476109	0.3365006	0.3196801	0.307262	0.316909	0.3545499
30	100	0	25	0	25.40886	34.9309	50.15623	0.5518036	0.4311065	0.329666	0.3826849	0.4749295	0.5420967	0.5895546	0.6176129	0.6278915	0.63358	0.6501731	0.6837652	0.7061052	0.6830388	0.6190128	0.5325546	0.4378402	0.3465888	0.2681354	0.2171255	0.1892396	0.1750579	0.165286	0.1597997	0.1603979	0.1633281	0.1689025	0.1797828	0.1935779	0.2006929	0.1980319	0.1901759	0.1791214	0.1723021	0.1803807	0.2075473
31	0	25	25	0	72.85716	73.0947	50.24492	0.2548896	0.2971884	0.3210146	0.4198263	0.5339788	0.5886825	0.6004497	0.6032555	0.6051381	0.6074314	0.6265479	0.6758214	0.7266238	0.7321724	0.7073486	0.6946261	0.6939498	0.6797307	0.6745026	0.7106097	0.7543365	0.7820116	0.7957469	0.8075597	0.8248047	0.8463708	0.8695254	0.8879758	0.9019802	0.9091173	0.9127704	0.9133145	0.9131574	0.9131139	0.9159032	0.9210939
32	25	25	25	0	63.09521	65.213	55.59454	0.302643	0.3140701	0.3471085	0.4561813	0.5913675	0.6611235	0.678634	0.6824144	0.6839618	0.6820144	0.6855298	0.702607	0.7171277	0.7054999	0.6779353	0.6609601	0.6513223	0.6281394	0.6082512	0.618303	0.634829	0.6440149	0.6457761	0.6491315	0.6607499	0.6770727	0.6967251	0.7176331	0.7375279	0.7477205	0.7487022	0.7438038	0.7353752	0.7291827	0.7364305	0.7599307
33	50	25	25	0	49.74404	54.26349	54.50195	0.2856521	0.2974658	0.3324384	0.440561	0.5741041	0.6445973	0.668101	0.6746487	0.6767263	0.6736705	0.6721214	0.6786326	0.6820003	0.6638833	0.6313947	0.6055359	0.5822221	0.5433346	0.5035954	0.4877827	0.4818278	0.4769025	0.4696123	0.465716	0.4711179	0.4811915	0.4953966	0.5155447	0.5380518	0.549682	0.547915	0.5382817	0.5231225	0.5118406	0.5218734	0.5577804
34	75	25	25	0	34.86431	41.14557	50.00622	0.3915796	0.3708885	0.3282245	0.3992687	0.5125208	0.5791711	0.6098271	0.622263	0.6252816	0.6223536	0.6210058	0.6294735	0.6330931	0.6081295	0.5627152	0.520534	0.4775501	0.4194601	0.3627866	0.329965	0.3116274	0.3000703	0.2894629	0.2828275	0.2844045	0.2894782	0.2982557	0.3140062	0.3333799	0.3434569	0.3404286	0.3301896	0.3149212	0.3039982	0.3129834	0.3479049
35	100	25	25	0	18.31821	24.98085	44.06311	0.5847408	0.4364768	0.2991559	0.3163136	0.3881077	0.4515837	0.5135723	0.554859	0.5680643	0.5721551	0.5795515	0.5942981	0.5930814	0.5503451	0.473068	0.3837041	0.2970751	0.2225602	0.165283	0.1322029	0.1164843	0.1095983	0.1056717	0.1043185	0.1059874	0.1084742	0.1123195	0.1186089	0.1258519	0.1291751	0.1273846	0.1233918	0.1189702	0.1182658	0.125443	0.1420431
36	0	50	25	0	67.7175	62.75857	46.09105	0.1819557	0.2470799	0.3134699	0.4135274	0.5223759	0.5656005	0.5690737	0.5648371	0.5590889	0.551304	0.5530779	0.5796988	0.6072381	0.589448	0.5457554	0.5309998	0.5376577	0.5227266	0.522267	0.5876313	0.6794636	0.7471129	0.7808189	0.7995938	0.8184841	0.8391157	0.860248	0.8762228	0.8881854	0.8938071	0.8961834	0.896467	0.8968954	0.8974221	0.8989061	0.902909
37	25	50	25	0	57.96376	55.33001	49.44863	0.3621927	0.3710614	0.3486076	0.4485871	0.5668182	0.6149057	0.6214281	0.6161885	0.6078136	0.5950286	0.584664	0.5901858	0.5947383	0.5649632	0.5181737	0.5002131	0.5010493	0.4799739	0.4691404	0.5120528	0.5735014	0.6151463	0.6316919	0.6395913	0.6517342	0.6667722	0.6844076	0.7030341	0.7210796	0.7300904	0.7300085	0.7245526	0.7161587	0.7096614	0.7160661	0.7386264
38	50	50	25	0	45.17876	45.03478	49.46596	0.3181174	0.3055755	0.3178891	0.4353446	0.5545005	0.615674	0.6301658	0.626609	0.6169292	0.5998175	0.5792416	0.5695837	0.5601132	0.5217509	0.4700653	0.4464148	0.4384323	0.4078863	0.3835593	0.4011114	0.432387	0.4510313	0.4534708	0.4527674	0.4589598	0.4687204	0.4823085	0.5016699	0.5235232	0.5348895	0.5328515	0.5229793	0.5076365	0.4959289	0.5051013	0.540444
39	75	50	25	0	29.49596	31.70456	44.17012	0.4742505	0.420241	0.3271825	0.3978375	0.492524	0.5433208	0.5628322	0.5647335	0.5555067	0.5379503	0.5160527	0.5033233	0.4892784	0.4475107	0.3925969	0.3611645	0.3405629	0.3006365	0.2650251	0.2581143	0.261328	0.2611211	0.2551318	0.2501087	0.2517038	0.2563013	0.2641957	0.2784327	0.2959425	0.3050423	0.3020315	0.2924765	0.278697	0.2686478	0.2770285	0.3090075
40	100	50	25	0	15.16294	19.35419	38.99229	0.3588062	0.3019	0.232103	0.2737619	0.3364827	0.3958099	0.4597396	0.5032645	0.5164356	0.5173157	0.5087759	0.4929225	0.4659092	0.4206657	0.3575397	0.2878132	0.2207845	0.1639827	0.1220251	0.0996059	0.09018414	0.0868352	0.08561189	0.0863076	0.08860055	0.09117716	0.09443909	0.09867386	0.1029511	0.1045523	0.1032599	0.101157	0.09979204	0.1018355	0.108731	0.1207398
41	0	75	25	0	61.84827	50.98098	41.47879	0.1958262	0.2564925	0.286271	0.3934225	0.4988817	0.5409752	0.5396566	0.5254644	0.5096819	0.48813	0.4676491	0.4659837	0.4649985	0.4252553	0.3704446	0.3557085	0.3658101	0.351565	0.3542354	0.4361587	0.5705699	0.6899024	0.7575427	0.7917581	0.817878	0.8429933	0.8673413	0.8856395	0.8994533	0.9062471	0.9096874	0.9101119	0.9100162	0.9102765	0.9128344	0.91821
42	25	75	25	0	50.94782	43.28783	42.58115	0.1978634	0.2825715	0.2991885	0.4097668	0.5211496	0.5641523	0.5626288	0.5469184	0.5277576	0.5011459	0.4701263	0.4534706	0.4394659	0.3955688	0.3420724	0.3263781	0.3329793	0.3165033	0.3133503	0.3746178	0.4725627	0.5531346	0.5929114	0.6104185	0.6265789	0.6439775	0.6630479	0.683232	0.7027035	0.7126967	0.7129759	0.707298	0.69798	0.6908648	0.698204	0.7228971
43	50	75	25	0	37.60111	33.49466	41.13667	0.4517756	0.4014703	0.3268552	0.4072618	0.5079027	0.5496864	0.5507875	0.5347908	0.5130956	0.4826013	0.4451327	0.4200769	0.3988779	0.3529479	0.3003829	0.282943	0.2841232	0.2638524	0.2528103	0.2885043	0.3453496	0.3871971	0.4021524	0.4056847	0.4129258	0.422567	0.4354427	0.4542528	0.4757472	0.4869334	0.4847089	0.4746282	0.4590719	0.4472819	0.4565403	0.4922152
44	75	75	25	0	25.5732	24.66106	37.55109	0.4300366	0.3743875	0.3020973	0.3625827	0.4474019	0.4900712	0.5012215	0.4924166	0.4730273	0.4442334	0.4091422	0.3861609	0.3654758	0.3206337	0.2687132	0.2461227	0.2372635	0.210724	0.190547	0.2005721	0.2221933	0.2363378	0.2378755	0.2358948	0.2386365	0.2436837	0.2516934	0.2656695	0.2825499	0.2912737	0.2885097	0.279459	0.2665395	0.2572856	0.2656177	0.2964147
45	100	75	25	0	14.80519	16.86913	36.01946	0.370444	0.3125916	0.244142	0.2768781	0.3409865	0.3979149	0.4508863	0.4783173	0.478153	0.4635064	0.4346598	0.403384	0.3702839	0.3244177	0.270772	0.2260629	0.1862615	0.1454722	0.1143437	0.1003848	0.09553514	0.09376285	0.09241363	0.09242979	0.09434	0.09671421	0.1001113	0.1048231	0.1099686	0.1121334	0.1107454	0.1080458	0.1056581	0.106557	0.113209	0.1263012
46	0	100	25	0	51.73392	34.69125	35.47816	0.2654816	0.2901304	0.305628	0.4155269	0.524188	0.5520129	0.5233977	0.4767187	0.4323066	0.3809431	0.3214801	0.2793091	0.2495102	0.2080451	0.1692263	0.161514	0.169292	0.1618825	0.1663965	0.227841	0.3578018	0.5260251	0.6644796	0.7453353	0.7930133	0.8275188	0.8560038	0.8764174	0.8912443	0.8988537	0.9029734	0.9041309	0.9048182	0.9056138	0.9086808	0.9142419
47	25	100	25	0	35.55466	24.04251	28.76241	0.368643	0.3583177	0.3012456	0.3600439	0.442406	0.4601194	0.4326882	0.3888972	0.3475689	0.300714	0.248449	0.212813	0.1881174	0.1550523	0.1256792	0.120079	0.1247151	0.1185051	0.1208687	0.1603565	0.2446505	0.3547984	0.4432372	0.4920226	0.5208676	0.5420844	0.561956	0.5831974	0.6045762	0.6160509	0.615927	0.6089184	0.597156	0.5882657	0.5960137	0.6241916
48	50	100	25	0	25.14447	18.08234	26.5797	0.3600864	0.3229214	0.2720772	0.3284584	0.3975619	0.4171643	0.3985308	0.3616909	0.3240432	0.2807685	0.2319508	0.1982157	0.1747128	0.1436809	0.1162986	0.1100369	0.112127	0.104874	0.1044443	0.1306878	0.1840518	0.2476693	0.2924742	0.3139931	0.3272801	0.3381259	0.3500897	0.3657381	0.3831384	0.3922856	0.3904265	0.3824341	0.3708207	0.3624507	0.3698122	0.3979797
49	75	100	25	0	17.98588	14.32737	26.26179	0.3442177	0.304955	0.2429345	0.2982615	0.3605653	0.3893487	0.3858819	0.3604031	0.3275815	0.2874612	0.2405334	0.2070367	0.182957	0.1510723	0.121887	0.1124536	0.1106104	0.1001661	0.09549967	0.1101567	0.1383357	0.1665922	0.1821567	0.1877321	0.1922044	0.1970269	0.203547	0.2136155	0.225535	0.2315336	0.2294462	0.2231549	0.2146719	0.2094681	0.2161531	0.23814
50	100	100	25	0	14.93003	13.70441	27.57033	0.2839012	0.2666349	0.2257657	0.2690415	0.3312391	0.3693328	0.3840004	0.3755877	0.3535524	0.3217306	0.280727	0.2488374	0.2234014	0.1888661	0.1545729	0.1382087	0.1285495	0.1110845	0.09916876	0.1030927	0.1143059	0.1235342	0.1264919	0.1268311	0.1288234	0.1315053	0.1358861	0.1428783	0.1511037	0.1551944	0.1533639	0.1487639	0.1432395	0.1409347	0.1474315	0.1647964
51	0	0	50	0	73.32052	79.64066	35.5477	0.1589667	0.2141353	0.2371282	0.2949239	0.351279	0.3793736	0.3872736	0.3939281	0.4006805	0.4131796	0.4590489	0.5689649	0.7159816	0.8087942	0.8358388	0.8339214	0.8244426	0.8144305	0.8044095	0.8024596	0.7990422	0.7976426	0.7993076	0.8068274	0.8224218	0.8431858	0.8657348	0.8838112	0.8974596	0.9043967	0.907995	0.9084682	0.9082506	0.9083053	0.9109436	0.9158708
52	25	0	50	0	59.54798	68.92311	35.20528	0.1142914	0.2534624	0.2363219	0.2929802	0.3487937	0.3764656	0.3850439	0.3918357	0.3984661	0.4102193	0.4544045	0.5607168	0.7038502	0.7924653	0.8113911	0.7965541	0.7683921	0.7327552	0.6920606	0.6612399	0.6384794	0.6251332	0.6157716	0.6134179	0.6218189	0.6355413	0.6534619	0.6750721	0.6970331	0.7082602	0.7077891	0.7000334	0.6874124	0.6774368	0.6854132	0.7151324
53	50	0	50	0	43.19306	54.83921	36.06831	0.3345258	0.3076323	0.2736491	0.3103248	0.3635692	0.3894015	0.3991114	0.4070866	0.4128796	0.423967	0.4654283	0.5645304	0.6928563	0.7628759	0.7616181	0.722793	0.6658399	0.5984684	0.5274664	0.4737629	0.4388273	0.4188773	0.4041391	0.3961094	0.3986026	0.4057713	0.4176746	0.4371287	0.4603079	0.4723406	0.4691316	0.4576893	0.4399956	0.4265541	0.4361352	0.4756736
54	75	0	50	0	32.21144	43.89412	36.68873	0.3239737	0.3223171	0.262356	0.3108921	0.3680711	0.3963131	0.4105272	0.4213427	0.4274226	0.4377442	0.4760702	0.5648077	0.6728135	0.7196295	0.6958423	0.6344953	0.5562354	0.4721654	0.3920645	0.3358504	0.3021708	0.2838164	0.2704805	0.2627666	0.2634723	0.2675515	0.275498	0.2904879	0.3090528	0.3187728	0.3155106	0.3051539	0.2901459	0.2792186	0.287973	0.3224597
55	100	0	50	0	21.62483	31.84527	35.9026	0.5127055	0.4035809	0.2893278	0.2994558	0.3496629	0.3810644	0.4043634	0.4213405	0.4282522	0.437351	0.470822	0.5456905	0.6261989	0.6411287	0.5882737	0.5035692	0.4102806	0.3216083	0.2467913	0.1989062	0.1731534	0.160213	0.1514308	0.1466437	0.1472472	0.1498893	0.1548905	0.1646625	0.1770213	0.1831541	0.1805808	0.1734696	0.1638418	0.1581782	0.1659628	0.1904664
