Measurements/EPSON_P900_Series/HP_Premeium_Plain/TotalInkLimit_WithXYZData.it8
CGATS.17
BORDER_PATCHES	1
KEYWORD	CHART_H
CHART_H	"2352"
KEYWORD	CHART_W
CHART_W	"2548"
DEVICE	15
KEYWORD	DEVICEMODE
DEVICEMODE	"0"
KEYWORD	GAP_SIZE
GAP_SIZE	"1800"
KEYWORD	HARDMARGIN_BOTTOM
HARDMARGIN_BOTTOM	"0"
KEYWORD	HARDMARGIN_LEFT
HARDMARGIN_LEFT	"0"
KEYWORD	HARDMARGIN_RIGHT
HARDMARGIN_RIGHT	"0"
KEYWORD	HARDMARGIN_TOP
HARDMARGIN_TOP	"0"
KEYWORD	ILLUMINATION_CONDITION
ILLUMINATION_CONDITION	"0"
KEYWORD	ISIS_XL_FORMAT
ISIS_XL_FORMAT	"0"
KEYWORD	LOWRES
LOWRES	"0"
KEYWORD	MEASURINGTYPE
MEASURINGTYPE	"0"
NUMBER_OF_COLS	17
NUMBER_OF_SETS	100
NUMBER_OF_STRIPS	6
KEYWORD	ORIGINAL_NUMBER_OF_SETS
ORIGINAL_NUMBER_OF_SETS	100
KEYWORD	PAGESIZE_HEIGHT
PAGESIZE_HEIGHT	"9493"
KEYWORD	PAGESIZE_WIDTH
PAGESIZE_WIDTH	"414"
KEYWORD	PAPERSIZE_HEIGHT
PAPERSIZE_HEIGHT	"9493"
KEYWORD	PAPERSIZE_WIDTH
PAPERSIZE_WIDTH	"414"
KEYWORD	PATCHES_PER_PAGE
PATCHES_PER_PAGE	102
KEYWORD	PATCH_SIZE_X
PATCH_SIZE_X	"9600"
KEYWORD	PATCH_SIZE_Y
PATCH_SIZE_Y	"9600"
KEYWORD	POSITIONING
POSITIONING	"1"
KEYWORD	PRINTERID
PRINTERID	"3239"
PROCESSCOLOR_ID	"4 1 Cyan"
PROCESSCOLOR_ID	"4 2 Magenta"
PROCESSCOLOR_ID	"4 3 Yellow"
PROCESSCOLOR_ID	"4 4 Black"
KEYWORD	QUALITY_MODE
QUALITY_MODE	"1"
KEYWORD	RANDOMIZED_PATCHES
RANDOMIZED_PATCHES	"0"
KEYWORD	REPEAT_PATCH_MEASURE_COUNT
REPEAT_PATCH_MEASURE_COUNT	"1"
KEYWORD	USE_FULL_PAGESIZE
USE_FULL_PAGESIZE	"0"
KEYWORD	USE_RANDOMIZED_REFERENCEFILE
USE_RANDOMIZED_REFERENCEFILE	"0"
KEYWORD	ZEBRA_RULER_MODE
ZEBRA_RULER_MODE	1
MANUFACTURER	"EFI"
KEYWORD	UV_CUT_MODE
UV_CUT_MODE	0
NUMBER_OF_FIELDS	44
BEGIN_DATA_FORMAT
SAMPLE_ID	CMYK_C	CMYK_M	CMYK_Y	CMYK_K	XYZ_X	XYZ_Y	XYZ_Z	SPECTRAL_380	SPECTRAL_390	SPECTRAL_400	SPECTRAL_410	SPECTRAL_420	SPECTRAL_430	SPECTRAL_440	SPECTRAL_450	SPECTRAL_460	SPECTRAL_470	SPECTRAL_480	SPECTRAL_490	SPECTRAL_500	SPECTRAL_510	SPECTRAL_520	SPECTRAL_530	SPECTRAL_540	SPECTRAL_550	SPECTRAL_560	SPECTRAL_570	SPECTRAL_580	SPECTRAL_590	SPECTRAL_600	SPECTRAL_610	SPECTRAL_620	SPECTRAL_630	SPECTRAL_640	SPECTRAL_650	SPECTRAL_660	SPECTRAL_670	SPECTRAL_680	SPECTRAL_690	SPECTRAL_700	SPECTRAL_710	SPECTRAL_720	SPECTRAL_730
END_DATA_FORMAT
BEGIN_DATA
1	33.33333	33.33333	33.33333	0	56.86353	58.58471	49.39057	0.2005018	0.255406	0.3082263	0.4044093	0.525833	0.5858813	0.6011743	0.6049686	0.605857	0.6041333	0.6096478	0.6322245	0.6520141	0.6395278	0.6077488	0.5900798	0.5824803	0.557605	0.537225	0.5507786	0.5732917	0.5863522	0.5888175	0.5911153	0.6004779	0.61432	0.6313028	0.6507073	0.6701727	0.6802141	0.6803106	0.6740115	0.6641066	0.6570804	0.6651729	0.6901225
2	34.90196	35.29412	34.90196	0	55.62391	57.19624	48.17675	0.2411928	0.2713362	0.3030339	0.3947112	0.5131426	0.5720366	0.5866696	0.5900882	0.5906063	0.5885257	0.593914	0.6171537	0.6379778	0.6251457	0.5925062	0.5746602	0.5672506	0.5422671	0.522007	0.5366877	0.5605717	0.5745867	0.5773874	0.5796745	0.5890619	0.602783	0.6195637	0.6388496	0.6582901	0.6683115	0.6681989	0.6617304	0.6516423	0.6446414	0.6524225	0.6778411
3	36.47059	36.86275	36.86275	0	54.07411	55.704	46.14832	0.09408841	0.1902938	0.2840528	0.3735373	0.487094	0.5447507	0.5600542	0.5639292	0.5649401	0.564081	0.5717893	0.5979389	0.6214302	0.6100103	0.5778069	0.5602136	0.5531335	0.528056	0.5077404	0.5222149	0.5460632	0.5601394	0.5630208	0.5652251	0.5744919	0.5878667	0.6043677	0.6236106	0.6431901	0.6532409	0.6530883	0.6465735	0.6363513	0.629071	0.637229	0.6630026
4	38.43137	38.43137	38.43137	0	52.59033	54.24438	44.96386	0.1127549	0.2360181	0.2838767	0.3706734	0.4760606	0.5306278	0.5451679	0.5489023	0.5500015	0.5489217	0.5563347	0.5834385	0.6084628	0.5975021	0.5646916	0.5467325	0.5393767	0.5138698	0.4931187	0.5073016	0.5310905	0.5450314	0.5474958	0.5492008	0.5579777	0.5711036	0.5871456	0.6063768	0.6262024	0.6364104	0.6360127	0.6292624	0.6183729	0.6107957	0.6194135	0.6464836
5	40	40.39216	40	0	51.18722	52.70448	43.89863	0.134059	0.1950417	0.2863395	0.3635454	0.4671525	0.5188426	0.5323526	0.5359093	0.536806	0.5352284	0.5424598	0.5696033	0.594777	0.5828691	0.5484331	0.5299273	0.5230037	0.4972636	0.47634	0.4914657	0.5163994	0.5309051	0.5333519	0.5349785	0.5435271	0.5564824	0.5726871	0.592195	0.6124272	0.6229998	0.6225649	0.615487	0.6039597	0.5960081	0.6049261	0.6330109
6	41.56863	41.96078	41.96078	0	49.61053	51.04358	42.11804	0.04578343	0.1806235	0.2704148	0.3512998	0.4515357	0.4976852	0.5101067	0.5134848	0.5140474	0.5127321	0.5201218	0.5483516	0.5751125	0.5644286	0.5303054	0.5124075	0.5057949	0.4805675	0.4601336	0.4757567	0.5013658	0.5163998	0.5189772	0.5202902	0.5284331	0.5407208	0.5562882	0.5752843	0.5952696	0.6057591	0.6051916	0.5978631	0.5863119	0.5783155	0.5873717	0.6160555
7	43.52941	43.52941	43.52941	0	47.85171	49.21404	40.51635	0.3393023	0.2941084	0.2975054	0.3548553	0.4398747	0.4798065	0.4897671	0.4926107	0.4927314	0.491408	0.4990801	0.5280902	0.5563394	0.5459621	0.5115757	0.4937425	0.4876291	0.4624065	0.4421843	0.4577945	0.4836011	0.4988354	0.5012583	0.5022085	0.5100974	0.5221215	0.5374264	0.5565403	0.5767738	0.5872109	0.5864961	0.578819	0.5670475	0.5588096	0.5679697	0.5978553
8	45.09804	45.4902	45.09804	0	45.90868	47.07805	39.03963	0.3281582	0.2838087	0.2804582	0.3397483	0.4230784	0.4627381	0.4725834	0.4751798	0.475032	0.4732395	0.4804142	0.5087731	0.5361023	0.5244979	0.4887241	0.4705593	0.4648628	0.4395003	0.4193337	0.4359403	0.4633321	0.4794682	0.4820883	0.4828291	0.4902208	0.5018548	0.5165947	0.5356075	0.5560948	0.5666677	0.5656447	0.5577877	0.5454178	0.5368507	0.5461921	0.5768514
9	46.66667	47.05882	47.05882	0	44.42201	45.60477	37.72652	0.2417277	0.2594332	0.2729225	0.327353	0.4097446	0.447499	0.456741	0.458923	0.4584351	0.4565348	0.4638172	0.4928202	0.5213016	0.5104898	0.4748933	0.4567666	0.4508562	0.4254569	0.4051473	0.4212287	0.4482748	0.4644638	0.4669401	0.4673991	0.4744317	0.4854914	0.4996142	0.5182313	0.5384154	0.5489126	0.5477199	0.5396169	0.5271508	0.5182658	0.5276059	0.5585027
10	48.62745	48.62745	48.62745	0	42.68383	43.62281	36.69805	0.247181	0.2439038	0.2625652	0.3170087	0.3990693	0.4367913	0.4453501	0.447347	0.4467053	0.444234	0.450246	0.4770175	0.5030342	0.48992	0.4527668	0.4345826	0.429145	0.4038452	0.3839828	0.4009916	0.4294438	0.446495	0.4493491	0.4496678	0.4563488	0.466808	0.4805905	0.4988983	0.519015	0.5294988	0.5281958	0.5197945	0.5068429	0.4979746	0.5072536	0.5388042
11	50.19608	50.58824	50.19608	0	41.32808	42.27593	35.3189	0.1435154	0.1864588	0.2448875	0.3069742	0.3846071	0.4201502	0.428347	0.4303823	0.4294267	0.4267834	0.4332737	0.4606437	0.4876552	0.4755737	0.4391821	0.4213478	0.4160873	0.3914657	0.3720624	0.3886015	0.4162606	0.4329729	0.4356719	0.4357954	0.4422808	0.4522786	0.4655529	0.4835063	0.5032493	0.5133899	0.5120612	0.5036235	0.4906784	0.4817168	0.4909808	0.5222591
12	51.76471	52.15686	52.15686	0	39.03773	39.68323	33.25936	0.319981	0.2684653	0.2677766	0.2990687	0.3653455	0.3957015	0.4033263	0.4048016	0.4035457	0.4006798	0.4067445	0.4340316	0.4610806	0.4480205	0.4102384	0.3923203	0.3877982	0.3629249	0.3438164	0.3621961	0.392453	0.4110409	0.4144037	0.4144793	0.4205228	0.4300974	0.4428899	0.4606265	0.4804407	0.4907014	0.4889976	0.480497	0.467482	0.4583293	0.4678859	0.4999785
13	53.72549	53.72549	53.72549	0	37.27577	37.96151	31.7088	0.2378613	0.2469923	0.2493354	0.2849574	0.347447	0.3769884	0.3840606	0.3855347	0.3846147	0.3821323	0.3883459	0.4152513	0.4416048	0.4290661	0.3928469	0.3758648	0.3715717	0.3478838	0.3296191	0.3467682	0.3752561	0.3926081	0.3955905	0.3954829	0.4010603	0.4100446	0.422047	0.4389124	0.4578287	0.4677455	0.4660538	0.4576325	0.4448469	0.4360235	0.4452686	0.4761524
14	55.29412	55.68627	55.29412	0	35.03314	35.42225	30.09946	0.2928522	0.264284	0.2375864	0.273114	0.3334856	0.3598234	0.365577	0.3666909	0.3652779	0.362214	0.3668303	0.3914495	0.4155063	0.4014506	0.3644576	0.3476717	0.3440056	0.3207765	0.3033365	0.3214915	0.3513015	0.3698383	0.3731666	0.3729703	0.378218	0.3867081	0.3982952	0.4148428	0.4335759	0.4433711	0.4417405	0.4332477	0.4203999	0.411464	0.420702	0.4519891
15	56.86275	57.2549	57.2549	0	33.35735	33.79408	28.37175	0.2628106	0.2261341	0.2341091	0.2589099	0.3123327	0.3372131	0.3437784	0.3451591	0.344108	0.3415479	0.3469363	0.3711561	0.394849	0.382474	0.348472	0.3327681	0.3290344	0.3069164	0.2899851	0.3065078	0.3344787	0.3523427	0.3558553	0.3558191	0.360929	0.3689591	0.3797188	0.3954494	0.413305	0.4224397	0.4206783	0.4127644	0.4005623	0.3922978	0.4014487	0.4312494
16	58.82353	58.82353	58.82353	0	31.4944	31.91087	27.12693	0.3074953	0.2453481	0.2370725	0.2482282	0.2982497	0.3231402	0.3290195	0.3302319	0.3294828	0.32693	0.3313199	0.3532072	0.3741571	0.3616611	0.3293093	0.3145074	0.3110444	0.2900427	0.2739771	0.2893627	0.3153849	0.331845	0.3349326	0.3348308	0.3394904	0.3470768	0.3572777	0.3720333	0.3888442	0.3976187	0.3958685	0.3882895	0.376868	0.3690814	0.378001	0.4065643
17	60.39216	60.78431	60.39216	0	29.45314	29.97181	25.37819	0.2662417	0.2216601	0.209422	0.2330424	0.2777222	0.3013449	0.3070532	0.3084876	0.3081268	0.3063087	0.3111233	0.3321421	0.351997	0.3407987	0.3112292	0.2975543	0.2938592	0.2738743	0.2580983	0.2713238	0.2946741	0.3097199	0.3126591	0.3125632	0.3168211	0.323626	0.3331005	0.3469533	0.3626808	0.3709153	0.3691773	0.3618059	0.3511696	0.3441135	0.3528239	0.3802357
18	61.96078	62.35294	62.35294	0	27.02747	27.51244	23.21812	0.3189364	0.2311527	0.2015569	0.2202617	0.2569461	0.2761379	0.2800769	0.2812436	0.2807935	0.2793241	0.2849259	0.3059524	0.3249875	0.3141904	0.2862759	0.2733176	0.2696577	0.250717	0.2357497	0.248136	0.2704153	0.2848954	0.2876879	0.2873393	0.2910634	0.2971638	0.3058182	0.3187395	0.33362	0.3414815	0.339875	0.3329655	0.3226881	0.3160152	0.3244639	0.3505
19	63.92157	63.92157	63.92157	0	25.28992	26.04834	22.17186	0.3461567	0.2363311	0.1998293	0.2082182	0.2438091	0.2619358	0.2666909	0.2683571	0.2681924	0.2672303	0.2730327	0.2934689	0.3122739	0.3026829	0.2766563	0.2639811	0.2591715	0.2401584	0.2245364	0.2337811	0.2521845	0.2643065	0.2663274	0.2656516	0.268954	0.2747898	0.2829734	0.29535	0.3095588	0.3171523	0.3154318	0.3087967	0.2990292	0.2927416	0.3009893	0.3263259
20	65.4902	65.88235	65.4902	0	23.52449	24.32651	20.69962	0.3956675	0.2451041	0.19629	0.1953537	0.2275922	0.2442804	0.2483907	0.2502041	0.2500181	0.2491111	0.255203	0.2751363	0.293334	0.2847332	0.260646	0.2484685	0.2432512	0.2249247	0.2097086	0.2172614	0.2339368	0.2451739	0.2471117	0.2465162	0.2496733	0.2550965	0.2628488	0.2745596	0.2880319	0.2951318	0.2933926	0.2870308	0.2779601	0.2721444	0.2800741	0.3041137
21	67.05882	67.45098	67.45098	0	22.47286	23.2402	19.47704	0.3783873	0.2401511	0.1824481	0.1903846	0.2164542	0.2298232	0.232998	0.2343945	0.2344225	0.2338419	0.2402614	0.2605288	0.2791347	0.2717197	0.2490547	0.2374412	0.232344	0.2147939	0.2002373	0.2072012	0.2233606	0.2347759	0.237072	0.2366561	0.2397224	0.2449198	0.2522874	0.2635244	0.2764513	0.2831672	0.2815358	0.2754035	0.2666542	0.2614846	0.2692285	0.2925026
22	69.01961	69.01961	69.01961	0	21.68904	22.38073	18.23311	0.2621753	0.1874758	0.1672119	0.1747578	0.201114	0.2143306	0.2175335	0.2188993	0.2188502	0.2185551	0.2257179	0.24683	0.2665557	0.2604052	0.2389666	0.227768	0.2227491	0.2059537	0.1921693	0.1994048	0.2158658	0.2279613	0.2308334	0.2308082	0.2339084	0.2389649	0.2462277	0.25707	0.2694237	0.2758132	0.2742839	0.2683875	0.260212	0.2552366	0.2628552	0.2855034
23	70.58824	70.98039	70.58824	0	20.85539	21.43559	17.38198	0.2199909	0.1852051	0.1673727	0.1674247	0.1935846	0.2047725	0.2072618	0.208255	0.2082584	0.207799	0.2148708	0.2359897	0.2554895	0.2493974	0.2281542	0.2171348	0.2121574	0.1959053	0.1828362	0.1902158	0.2070484	0.2197395	0.2230661	0.2233546	0.2264007	0.2313667	0.2384773	0.2490888	0.2611246	0.2674189	0.2659015	0.2600483	0.2521372	0.2474038	0.2549615	0.2771428
24	72.15686	72.54902	72.54902	0	19.81896	20.36767	16.34973	0.2855394	0.2016518	0.1551593	0.1602773	0.1806055	0.1923936	0.1945899	0.1955546	0.1953059	0.195167	0.2025197	0.2234202	0.2429943	0.2373685	0.2169287	0.2063984	0.201432	0.1857803	0.1731303	0.1801557	0.1965562	0.2092119	0.2127788	0.2130499	0.2160638	0.2208541	0.2275229	0.2376326	0.2491427	0.2551327	0.2536531	0.2480767	0.2405016	0.2362566	0.2434331	0.2648186
25	74.11765	74.11765	74.11765	0	18.73893	19.19281	15.36785	0.2765715	0.1738773	0.1500551	0.1559497	0.1710023	0.180573	0.182811	0.1835799	0.1832961	0.1829753	0.190063	0.2105649	0.2296926	0.2241638	0.2042954	0.1939418	0.1890541	0.1738469	0.1617029	0.1686865	0.1851162	0.1980865	0.2021182	0.202658	0.2055684	0.2102042	0.2166069	0.2263312	0.2374458	0.243168	0.2416014	0.2362189	0.229019	0.2249331	0.2321924	0.2528971
26	75.68627	76.07843	75.68627	0	18.39513	18.8266	15.0608	0.2945729	0.2099103	0.1511289	0.1476595	0.1682083	0.177348	0.1792153	0.179948	0.1796693	0.1792375	0.1858929	0.2058742	0.2249162	0.2199668	0.2007395	0.1904059	0.1852603	0.1702593	0.1584044	0.1651613	0.1813336	0.1943408	0.1986411	0.1993672	0.2022944	0.2068141	0.2130271	0.2224001	0.2331359	0.238578	0.2371126	0.2319244	0.2249936	0.2210505	0.2280722	0.2479742
27	77.2549	77.64706	77.64706	0	18.01715	18.38023	14.50128	0.2169965	0.1921178	0.147514	0.1464931	0.1622367	0.1705373	0.1729236	0.17291	0.172417	0.1723077	0.1790251	0.1986937	0.2175593	0.2130735	0.1947967	0.1850841	0.180188	0.165732	0.1545125	0.1614564	0.1777111	0.1909852	0.1955396	0.1964188	0.1993559	0.2038635	0.2100635	0.2192227	0.2295277	0.2347525	0.233284	0.228354	0.2217819	0.2182678	0.2252693	0.2449076
28	79.21569	79.21569	79.21569	0	17.71333	18.08715	14.27068	0.2249076	0.1615886	0.1373097	0.1422178	0.1578146	0.1675626	0.1697603	0.170353	0.1702296	0.1701273	0.1768117	0.1956974	0.2135247	0.2090453	0.1913562	0.1819256	0.1773547	0.163579	0.1528041	0.1595405	0.1751406	0.1877339	0.1919899	0.1927826	0.1956748	0.1999581	0.2059172	0.2147083	0.2246571	0.2296166	0.2282898	0.2235918	0.2173857	0.21413	0.2209102	0.2396873
29	80.78431	81.17647	80.78431	0	17.30192	17.61695	13.90044	0.2174218	0.1621979	0.1346492	0.1370122	0.1538351	0.1638426	0.1656978	0.1662867	0.1660664	0.165853	0.1718399	0.1891963	0.2057013	0.2014157	0.1850991	0.1764768	0.1722292	0.1594926	0.1496068	0.156248	0.1711779	0.1833513	0.1875714	0.1886417	0.1915053	0.1956108	0.2012322	0.2093898	0.218586	0.2232276	0.2219672	0.2176981	0.2121106	0.2094141	0.216063	0.2333626
30	82.35294	82.7451	82.7451	0	17.05922	17.59826	13.49122	0.1505424	0.1453715	0.1312199	0.1331659	0.1494663	0.1572163	0.1594405	0.1603532	0.1606558	0.1611452	0.1681362	0.186492	0.2040819	0.2016947	0.1870703	0.1789009	0.1744765	0.1619579	0.1521281	0.1576007	0.1704456	0.1806656	0.1840577	0.1847685	0.1872389	0.1911323	0.1965217	0.2042148	0.2127696	0.2171065	0.2158701	0.2117933	0.2066289	0.2043081	0.2108786	0.2271851
31	84.31373	84.31373	84.31373	0	16.33676	16.97266	13.0389	0.2069038	0.1604381	0.1381827	0.1332105	0.1434096	0.1516179	0.1537522	0.1548631	0.1553233	0.1560111	0.1626421	0.1798415	0.196386	0.1945844	0.1815145	0.1739715	0.1697167	0.1580285	0.1486367	0.1530507	0.163894	0.1723218	0.1749347	0.1753866	0.1777442	0.1812718	0.1861445	0.1930879	0.2008037	0.2046284	0.2034982	0.1998631	0.1953839	0.1936897	0.199785	0.2149197
32	85.88235	86.27451	85.88235	0	15.69154	16.31042	12.48949	0.2269903	0.1663447	0.1290908	0.1245079	0.1375312	0.1451482	0.1476807	0.1482096	0.148962	0.1499381	0.1560963	0.1714649	0.1860608	0.1846979	0.1734744	0.1670302	0.1633096	0.1528329	0.1444453	0.1484438	0.1579945	0.1654249	0.1676305	0.1681129	0.170367	0.1736737	0.1780717	0.1843632	0.1912411	0.1946072	0.1935834	0.1902257	0.1864657	0.1853259	0.1909923	0.2047713
33	87.45098	87.84314	87.84314	0	15.38988	15.9338	12.31242	0.1657857	0.1391177	0.1259533	0.1234296	0.1368906	0.1436463	0.1459287	0.1468527	0.1473689	0.1483452	0.1535773	0.1665127	0.1786501	0.177119	0.1675249	0.1619995	0.1588054	0.1498622	0.1426811	0.1466266	0.1554503	0.1621009	0.1640772	0.1646683	0.166768	0.1698945	0.1740002	0.179592	0.1856641	0.1886755	0.1876474	0.1849194	0.1818937	0.1813968	0.1867678	0.1991609
34	89.41176	89.41176	89.41176	0	13.7836	14.28117	11.02568	0.1951861	0.1405549	0.1244005	0.1099568	0.1209031	0.1281989	0.1304876	0.1313746	0.1323182	0.1333442	0.1380507	0.1491004	0.1587947	0.1573831	0.1494493	0.1450967	0.1424447	0.1349701	0.1289459	0.1323565	0.1396004	0.1449871	0.1465808	0.1471699	0.1490234	0.1517514	0.1553894	0.1602177	0.1653245	0.1677109	0.1669014	0.164682	0.1623743	0.1622281	0.1674533	0.1780896
35	90.98039	91.37255	90.98039	0	12.93	13.41744	10.51059	0.1642704	0.1105058	0.09348223	0.1085937	0.1184221	0.1231276	0.1242849	0.1255185	0.1260764	0.1272518	0.1314901	0.1410752	0.1490036	0.1472941	0.1403886	0.1365023	0.1340612	0.1273578	0.1220801	0.125059	0.1312135	0.1356403	0.1368813	0.1372272	0.1388165	0.1411832	0.14438	0.1485328	0.1529676	0.1549542	0.1541707	0.1521164	0.1503476	0.1505714	0.1552994	0.1651752
36	92.54902	92.94118	92.94118	0	12.32988	12.83482	10.00978	0.1173636	0.1057008	0.09291066	0.1004489	0.1107503	0.1167593	0.1185406	0.1196513	0.1204433	0.1217021	0.1255853	0.1340067	0.1409659	0.1397913	0.1341975	0.1309375	0.1287094	0.1228853	0.1181998	0.120555	0.1254091	0.1290081	0.1299918	0.1304048	0.1318751	0.1340413	0.1369885	0.1407462	0.1446858	0.1463254	0.1456348	0.1440072	0.1426192	0.143133	0.147634	0.1566272
37	94.5098	94.5098	94.5098	0	11.51957	12.00995	9.421304	0.09501129	0.1067401	0.07562084	0.09053945	0.1045234	0.1096525	0.1118058	0.1129701	0.1137678	0.1151472	0.1184027	0.1251897	0.1304628	0.1294105	0.1251695	0.1226815	0.1207952	0.1159784	0.1119945	0.1137184	0.1172834	0.1198926	0.1206732	0.1210802	0.1225855	0.1246956	0.1273723	0.1306669	0.1341206	0.1354869	0.1349602	0.1335418	0.1326575	0.1335452	0.137866	0.1457903
38	96.07843	96.47059	96.07843	0	11.2059	11.66677	9.371531	0.1501975	0.1192508	0.08405158	0.09032237	0.1017985	0.1095982	0.1119763	0.1130471	0.1138667	0.1149254	0.1173129	0.1221563	0.1256453	0.1244572	0.1210519	0.1190774	0.1173533	0.1132391	0.1098275	0.1111464	0.1139516	0.1159888	0.1166127	0.1170608	0.1184722	0.1203811	0.122849	0.12574	0.128716	0.1298475	0.1293482	0.1281714	0.1276958	0.1287442	0.1327952	0.1397434
39	97.64706	98.03922	98.03922	0	10.73995	11.12513	8.976648	0.1205028	0.1216318	0.09224291	0.08905945	0.0992101	0.105593	0.1076054	0.1085114	0.109158	0.1100598	0.1117853	0.1150828	0.117355	0.1163937	0.1139255	0.1125797	0.1114198	0.1083671	0.105708	0.1069655	0.1093346	0.1110537	0.1117754	0.1123388	0.1136075	0.1153772	0.1176642	0.1201575	0.1227047	0.1236665	0.1232808	0.1224059	0.1221728	0.1234708	0.1271168	0.1332553
40	99.60784	99.60784	99.60784	0	10.14529	10.49685	8.533933	0.1155476	0.1191742	0.0832926	0.08233034	0.09415501	0.1002278	0.1022701	0.10354	0.1043589	0.1051479	0.1062031	0.1083377	0.10968	0.1087352	0.1069901	0.1060402	0.1051128	0.1025849	0.100417	0.1014467	0.1032388	0.1046447	0.1052279	0.1058481	0.1071168	0.10879	0.110782	0.1130613	0.1153565	0.1161886	0.1158951	0.1151763	0.115303	0.1166197	0.1201302	0.1257304
41	25.09804	25.09804	24.70588	25.09804	45.80497	46.61482	39.57371	0.31748	0.2945454	0.272034	0.3462403	0.4324086	0.4727239	0.4815852	0.4833517	0.4822332	0.479062	0.4845495	0.510537	0.5349532	0.5199054	0.4809615	0.4620327	0.4566393	0.4304669	0.4100774	0.4290156	0.4601911	0.4787777	0.4822015	0.4828916	0.4903857	0.5019549	0.5168613	0.5361591	0.5570377	0.5680323	0.5669957	0.5587647	0.5459097	0.536653	0.5461971	0.5777854
42	26.27451	26.27451	26.27451	26.27451	44.06844	44.59453	37.93967	0.3085822	0.2469586	0.2583837	0.3326362	0.4158883	0.4539962	0.4622572	0.4638214	0.4620329	0.4586102	0.4635815	0.4897711	0.513874	0.4974748	0.4571566	0.4382991	0.4336076	0.407914	0.3883175	0.408976	0.4421248	0.4623279	0.4663665	0.4671254	0.474439	0.4858163	0.5004693	0.5198509	0.5409304	0.552034	0.5508948	0.5423846	0.5292429	0.5197929	0.5292458	0.5612392
43	27.45098	27.45098	27.45098	27.84314	41.90643	42.16674	36.33691	0.208917	0.2481878	0.2447087	0.3182518	0.4005945	0.4362008	0.4443992	0.4452345	0.4426898	0.4383765	0.4423276	0.4669581	0.4897133	0.471763	0.4304573	0.4115567	0.4073656	0.3818848	0.3628471	0.3844239	0.4191304	0.4404715	0.4450607	0.4457572	0.4526929	0.4634016	0.4774465	0.4965055	0.5176504	0.5286143	0.5272812	0.5185466	0.5050895	0.4951576	0.5045395	0.537412
44	29.01961	28.62745	28.62745	29.01961	40.2495	40.34652	35.3051	0.2811517	0.2548708	0.2510656	0.3139398	0.3918993	0.4259377	0.432844	0.4333891	0.4302545	0.4251852	0.4277732	0.4505385	0.4718266	0.4530477	0.4110489	0.3923072	0.388345	0.3631054	0.3443164	0.3660913	0.4013198	0.4231985	0.4279095	0.4283736	0.4349078	0.4450613	0.4586239	0.4772187	0.4979122	0.5088894	0.5073713	0.4984993	0.4848323	0.4749219	0.4842662	0.5173478
45	30.19608	30.19608	29.80392	30.19608	38.2351	38.12529	33.82918	0.3148685	0.2558329	0.2407709	0.3049029	0.3792403	0.4097513	0.4159099	0.4157051	0.4121754	0.4064255	0.4082812	0.4299384	0.4499629	0.4298618	0.3873691	0.3686121	0.3647887	0.3397922	0.3213258	0.3433232	0.3794629	0.4026301	0.4079139	0.4083368	0.4145188	0.424055	0.4367301	0.4548698	0.475294	0.4860985	0.4843189	0.4752576	0.4615601	0.4513794	0.4608964	0.4941363
46	31.37255	31.37255	31.37255	31.37255	35.85275	35.72835	32.05984	0.2545035	0.218889	0.2353662	0.2913286	0.3579607	0.3886622	0.3944195	0.3942537	0.3907523	0.3851369	0.3866408	0.4075539	0.4264657	0.4060745	0.3640289	0.3456104	0.3417681	0.3170665	0.2988476	0.3198885	0.3548126	0.3772626	0.3822684	0.382405	0.3881285	0.3970612	0.4093581	0.4269496	0.447078	0.457702	0.4558708	0.446777	0.4329676	0.4229496	0.4324288	0.4656571
47	32.54902	32.54902	32.54902	32.94118	33.55202	33.36893	30.23356	0.4276113	0.2886995	0.240253	0.2824757	0.3416269	0.367027	0.3717811	0.3714459	0.3679345	0.362382	0.3636058	0.3839783	0.4020328	0.3815269	0.3401983	0.3222031	0.3184662	0.2945451	0.276896	0.2971396	0.331189	0.3531198	0.3580354	0.3580558	0.3633373	0.371618	0.3831529	0.4002394	0.4198459	0.4302191	0.428212	0.4190309	0.4054022	0.3955055	0.4049023	0.4381167
48	34.11765	33.72549	33.72549	34.11765	31.69526	31.53833	28.54583	0.2656249	0.2136552	0.2164958	0.2648667	0.3206803	0.3465394	0.3510905	0.3510896	0.3478867	0.3423869	0.3434556	0.3625377	0.3795134	0.3603007	0.3216996	0.3048905	0.3013335	0.278756	0.2620205	0.280772	0.3126107	0.3335023	0.338191	0.3382981	0.343154	0.3509747	0.3618357	0.3780016	0.3966415	0.4064169	0.40435	0.3956788	0.382719	0.3732689	0.3824535	0.41423
49	35.29412	35.29412	34.90196	35.29412	29.86235	29.72426	26.97247	0.3945546	0.2695963	0.2211221	0.25442	0.3040198	0.3271718	0.3315636	0.33139	0.3282696	0.3232958	0.3246362	0.3425217	0.3583264	0.3400464	0.3034703	0.2876343	0.2842168	0.2628637	0.2469411	0.2643029	0.2941406	0.3140288	0.3185361	0.3185458	0.3230519	0.3303462	0.3405105	0.3558496	0.3735539	0.3828561	0.3807994	0.3724028	0.3600767	0.3512669	0.3602069	0.3908392
50	36.47059	36.47059	36.47059	36.47059	28.61848	28.50081	25.61872	0.3835681	0.2506829	0.2081983	0.2396916	0.2869419	0.310087	0.3149014	0.3145752	0.3118913	0.3075637	0.3088414	0.3255645	0.3405103	0.3240599	0.2907722	0.2762572	0.2728031	0.2528298	0.2379535	0.2538128	0.2817667	0.3008587	0.3056938	0.3060768	0.3104987	0.3174303	0.3268786	0.3410331	0.357398	0.3659228	0.3640957	0.3563795	0.3450339	0.3372627	0.3457273	0.3743064
51	37.64706	37.64706	37.64706	38.03922	27.05647	27.08964	24.24526	0.3859184	0.2469793	0.1989105	0.2355236	0.2782354	0.2948896	0.2971471	0.2967348	0.2936681	0.2896318	0.2916982	0.3090383	0.324708	0.3100823	0.2789549	0.2650279	0.2611443	0.2416549	0.2268215	0.2409062	0.2664917	0.2842712	0.288628	0.2886256	0.2924145	0.2985768	0.3072316	0.320507	0.3359728	0.3439268	0.3419091	0.3343	0.3236688	0.3164926	0.3248247	0.3523812
52	39.21569	38.82353	38.82353	39.21569	25.23944	25.39192	23.02957	0.2983637	0.2301815	0.1969839	0.2228974	0.2625766	0.2792718	0.282437	0.2821805	0.2795771	0.2755758	0.2771362	0.2927908	0.3074101	0.293476	0.2642576	0.2508955	0.2465342	0.2276865	0.2130316	0.2247749	0.2474918	0.2636862	0.2676547	0.2675155	0.2708999	0.2765032	0.2845151	0.2970101	0.3115438	0.3191906	0.3171291	0.3100066	0.2996119	0.2928289	0.3005897	0.326534
